!!!!SEGMENT: pl-sa--176-a-v-6--001-002_anonim--msza-et-in-terra.krn
!!!cenid: 17xx:1613
!!!COM: Anonim
!!!COM-rismID: pe30004985
!!!CDT:
!!!CNT:
!!!OPR: Msza
!!!OTL: Et in terra
!!!OMV: 002
!!!PDT:
!!!AGN: Sacred; Mass
!!!YEC: Copyright 2022 Narodowy Instytut Fryderyka Chopina (https://polishscores.org)
!!!YEM: License CC-BY-4.0 (https://creativecommons.org/licenses/by/4.0)
!!!SMS-siglum: PL-SA
!!!SMS-shelfmark: 176/A V 6
!!!SMS-shelfwork: 001-002 M
!!!SMS-variant:
!!!SMS-altvar:
!!!NIFC-rismSourceID: 1001035881
!!!NIFC-rismChildID: 1001035881
!!!NIFC-islandoraID: none
!!!URL-pdf-islandora:
!!!URL-scan: https://bc.bdsandomierz.pl/dlibra/publication/1510/edition/1478/content @EN{Scan in the Sandomierz Diocese Digital Library} @PL{Skany w portalu Cyfrowa Biblioteka Diecezjalna w Sandomierzu}
!!!IIIF:
!!!ONB-nifc: UWAGA: części Mszy: 1. Kyrie, 2. Et in terra, 3. Patrem, 4. Sanctus, 5. Osanna, 6. Benedictus, 7. Agnus Dei. Uwaga: błąd w sygnaturze w metadanych bc.bdsandomierz.pl
!!!AIN: 1 alto 1 bass 2 corno 1 organ 1 soprn 1 tenor 2 violn
!!!key: E-
**kern	**fba	**kern	**kern	**kern	**text	**kern	**text	**kern	**text	**kern	**text	**kern	**kern
*	*	*group3	*group3	*group2	*	*group2	*	*group2	*	*group2	*	*group1	*group1
*part9	*	*part8	*part7	*part6	*	*part5	*	*part4	*	*part3	*	*part2	*part1
*staff9	*	*staff8	*staff7	*staff6	*	*staff5	*	*staff4	*	*staff3	*	*staff2	*staff1
*IGcont	*	*IGacmp	*IGacmp	*IGcoro	*	*IGcoro	*	*IGcoro	*	*IGcoro	*	*IGacmp	*IGacmp
*ICklav	*	*ICstr	*ICstr	*ICvox	*	*ICvox	*	*ICvox	*	*ICvox	*	*ICbras	*ICbras
*Iorgan	*	*Ivioln	*Ivioln	*Ibass	*	*Itenor	*	*Ialto	*	*Isoprn	*	*Icorno	*Icorno
*I"ORGANO.	*	*I"Violino 2do	*I"Violino 1mo.	*I"Baſso.	*	*I"Tenore.	*	*I"Alto.	*	*I"Canto.	*	*I"Lituo 2do ex Dis ad Libitum	*I"Lituo 1mo ex Dis ad Libitum
*I'org	*	*I'vl 2	*I'vl 1	*I'B	*	*I'T	*	*I'A	*	*I'S	*	*I'lituus 2 in E|b	*I'lituus 1 in E|b
*clefF4	*	*clefG2	*clefG2	*clefF4	*	*clefC4	*	*clefC3	*	*clefC1	*	*clefG2	*clefG2
*	*	*	*	*	*	*	*	*	*	*	*	*ITrd5c9	*ITrd5c9
*k[a-b-e-a-3]	*	*k[a-b-e-]	*k[a-b-e-]	*k[b-e-a-]	*	*k[a-b-e-]	*	*k[a-b-e-]	*	*k[a-b-e-3]	*	*k[b-e-a-]	*k[b-e-a-]
*E-:	*	*E-:	*E-:	*E-:	*	*E-:	*	*E-:	*	*E-:	*	*	*
*M3/4	*	*M3/4	*M3/4	*M3/4	*	*M3/4	*	*M3/4	*	*M3/4	*	*M3/4	*M3/4
*2\right	*	*2\right	*2\right	*2\right	*	*2\right	*	*2\right	*	*2\right	*	*2\right	*2\right
=1	=1	=1	=1	=1	=1	=1	=1	=1	=1	=1	=1	=1	=1
8E-\L	.	8ee-\L	8ff\L	8E-\	Et	8B-\	Et	8g\	Et	8ee-\	Et	8G/L	8e-\L
8E-\	.	16gg\L	16bb-\L	8E-\	in	8B-\	in	8g\	in	8ee-\	in	8G/	8e-\
.	.	16ff\JJ	16aa-X\JJ	.	.	.	.	.	.	.	.	.	.
8E-\	.	8ee-\L	8gg\L	8E-\	ter-	8B-\	ter-	8g\	ter-	8ee-\	ter-	8G/	8e-\
8G\	x 6	8ee-\	8gg\	8G\	-ra	8B-\	-ra	8g\	-ra	8ee-\	-ra	8G/	8e-\
8E-\	.	8ee-\	8gg\	8E-\	ter-	8B-\	ter-	8g\	ter-	8ee-\	ter-	8G/	8e-\
8BB-\J	.	8dd\J	8ff\J	8BB-/	-ra	8B-\	-[r]a	8f\	-ra	8dd\	-ra	8B-/J	8f\J
=2	=2	=2	=2	=2	=2	=2	=2	=2	=2	=2	=2	=2	=2
4E-\	.	4ee-\	8gg\L	4E-\	pax	4B-\	pax	4g\	pax	4ee-\	pax	4e-\	4g\
.	.	.	8ee-\J	.	.	.	.	.	.	.	.	.	.
4r	.	8r	8r	4r	.	4r	.	4r	.	8r	.	4r	4r
.	.	16dd\LL	16dd\LL	.	.	.	.	.	.	16dd\LL	in	.	.
.	.	16cc\JJ	16cc\JJ	.	.	.	.	.	.	16cc\JJ	.	.	.
4r	.	16b-\LL	16b-/LL	4r	.	4r	.	4r	.	16b-\LL	ter-	4r	4r
.	.	16a-\	16a-/	.	.	.	.	.	.	16a-\JJ	.	.	.
.	.	16g\	16g/	.	.	.	.	.	.	16g/LL	-ra	.	.
.	.	16f\JJ	16f/JJ	.	.	.	.	.	.	16f/JJ	.	.	.
=3	=3	=3	=3	=3	=3	=3	=3	=3	=3	=3	=3	=3	=3
4E-\	.	4e-/	4e-/	4E-\	pax	4B-\	pax	4g\	pax	4e-/	pax	4e-\	4g\
4r	.	8r	8r	4r	.	4r	.	4r	.	8r	.	4r	4r
.	.	16f/LL	16f/LL	.	.	.	.	.	.	(16f/LL	in	.	.
.	.	16g/JJ	16g/JJ	.	.	.	.	.	.	16g/JJ)	.	.	.
4r	.	16a-\LL	16a-\LL	4r	.	4r	.	4r	.	(16a-\LL	ter-	4r	4r
.	.	16b-\	16b-\	.	.	.	.	.	.	16b-\JJ)	.	.	.
.	.	16cc\	16cc\	.	.	.	.	.	.	(16cc\LL	-ra	.	.
.	.	16dd\JJ	16dd\JJ	.	.	.	.	.	.	16dd\JJ)	.	.	.
=4	=4	=4	=4	=4	=4	=4	=4	=4	=4	=4	=4	=4	=4
8E-\L	.	8ee-\L	8ee-\L	8E-\	Et	8B-\	Et	8g\	Et	8ee-\	pax	8e-\L	8g\L
8E-\	.	16gg\L	16bb-\L	8E-\	in	8B-\	in	8g\	in	8ee-\	in	8e-\	8g\
.	.	16ff\JJ	16aa-\JJ	.	.	.	.	.	.	.	.	.	.
8E-\	.	8ee-\L	8gg\L	8E-\	ter-	8B-\	ter-	8g\	ter-	8ee-\	ter-	8e-\	8g\
8G\	x 6	8ee-\	8gg\	8G\	-ra	8B-\	-ra	8g\	-ra	8ee-\	-ra	8e-\	8g\
8E-\	.	8ee-\	8gg\	8E-\	ter-	8B-\	ter-	8g\	ter-	8ee-\	ter-	8e-\	8g\
8BB-\J	.	8dd\J	8ff\J	8BB-/	-ra	8B-\	-ra	8f\	-ra	8dd\	-ra	8f\J	8b-\J
=5	=5	=5	=5	=5	=5	=5	=5	=5	=5	=5	=5	=5	=5
4E-\	.	8ee-\L	8gg\L	4E-\	pax	4B-\	pax	4g\	pax	4ee-\	pax	4g\	4b-\
.	.	16gg\L	16bb-\L	.	.	.	.	.	.	.	.	.	.
.	.	16ff\JJ	16aa-\JJ	.	.	.	.	.	.	.	.	.	.
8r	.	8ee-\L	8gg\L	8r	.	8r	.	8r	.	8r	.	8r	8r
8D\	x 6	8b-\	8ff\J	8D\	ho-	8B-\	ho-	8f\	ho-	8b-\	ho-	8f\	8b-\L
8E-\L	.	8ee-\	8gg\L	8E-\	-mi-	8B-\	-mi-	8g\	-mi-	8b-\	-mi-	8g\L	8b-\
16D\L	.	8b-\J	16ff\L	16D/LL	-ni-	8B-\	-ni-	(16f\LL	-ni-	8b-\	-ni-	16f\L	8b-\J
16C\JJ	.	.	16ee-\JJ	16C/JJ	.	.	.	16e-\JJ)	.	.	.	16e-\JJ	.
=6	=6	=6	=6	=6	=6	=6	=6	=6	=6	=6	=6	=6	=6
!	!	!	!	!LO:LB:g=original	!	!	!	!	!	!LO:LB:g=original	!	!	!
8BB-/	.	8dd\	8ff\	8BB-/	-bus	8F/	-bus	8d\	-bus	8b-\	-bus	8f\	8b-\
8r	.	8r	8r	4B-\	bo-	4B-\	bo-	4f\	bo-	4dd\	bo-	8r	8r
4r	.	4r	4r	.	.	.	.	.	.	.	.	4r	4r
.	.	.	.	8B-\	-nae	8G/	-nae	8g\	-nae	8ee-\	-nae	.	.
!	!	!	!	!	!	!LO:LB:g=original	!	!	!	!	!	!	!
4r	.	4r	4r	4B-\	bo-	(8B-\L	bo-	(8f\L	bo-	8dd\L	bo-	4r	4r
.	.	.	.	.	.	8G\J)	.	8g\J)	.	8ee-\J	.	.	.
=7	=7	=7	=7	=7	=7	=7	=7	=7	=7	=7	=7	=7	=7
!	!	!	!LO:LB:g=original	!	!	!	!	!LO:LB:g=original	!	!	!	!	!
8r	.	8r	8r	8B-\	-nae	8B-\	-nae	8f\	-nae	8dd\	-nae	8r	8r
8BB-/L	.	8dd\	8ff\	4B-\	bo-	4B-\	bo-	4f\	bo-	4dd\	bo-	8B-\L	8f\L
8BB-/	.	8dd\L	8ff\L	.	.	.	.	.	.	.	.	8B-\	8f\
8BB-/	6 4	8ee-\	8gg\	8B-\	-nae	8G/	-nae	8g\	-nae	8ee-\	-nae	8e-\	8g\
8BB-/	5 3	8dd\	8ff\	8B-\	bo-	8B-\	bo-	8f\	bo-	8dd\	bo-	8B-\	8f\
8BB-/J	6 4	8ee-\J	8gg\J	8B-\	-nae	8G/	-nae	8g\	-nae	8ee-\	-nae	8e-\J	8g\J
=8	=8	=8	=8	=8	=8	=8	=8	=8	=8	=8	=8	=8	=8
!LO:TX:t=P:problem=mixed beam	!	!LO:LB:g=original	!	!	!	!	!	!	!	!	!	!LO:LB:g=original	!
8BB-/L	5 3	8dd\L	8ff\L	8B-\	bo-	8B-\	bo-	8f\	bo-	8dd\	bo-	4B-/	4f\
16B-\L	.	8dd\	8ff\	8B-\	-nae	8B-\	-nae	8f\	-nae	8dd\	-nae	.	.
16A-\JJ	.	.	.	.	.	.	.	.	.	.	.	.	.
8G\L	.	8ee-\	8gg\	8G\	Vo-	8B-\	Vo-	8f\	Vo-	8ee-\	Vo-	8g\L	8b-\L
8A-\	6 5	8cc\J	8ff\J	8A-\	-lun-	8c\	-lun-	8f\	-lun-	8ee-\	-lu[n]-	16f\L	16a-\L
.	.	.	.	.	.	.	.	.	.	.	.	16e-\JJ	16g\JJ
!LO:TX:t=P:problem=mixed beam	!	!	!	!LO:TX:t=P:problem=mixed beam	!	!	!	!	!	!	!	!	!
8B-\	.	8dd\L	4ff\	8B-\L	-ta-	4B-\	-ta-	4f\	-ta-	4dd\	-ta-	4B-/	4f\
8BB-/J	.	16cc\L	.	8BB-/J	.	.	.	.	.	.	.	.	.
.	.	16dd\JJ	.	.	.	.	.	.	.	.	.	.	.
=9	=9	=9	=9	=9	=9	=9	=9	=9	=9	=9	=9	=9	=9
!	!	!	!	!	!	!	!	!	!	!	!	!	!LO:LB:g=original
8E-\L	.	8ee-\	4ee-\	4E-\	-tis	4B-\	-tis	4g\	-tis	4ee-\	-tis	4G/	4e-\
8F\	.	8r	.	.	.	.	.	.	.	.	.	.	.
8G\	x 6	4r	4r	4r	.	4r	.	4r	.	8r	.	4r	4r
8E-\	.	.	.	.	.	.	.	.	.	8b-\	Lau-	.	.
8F\	.	4r	4r	4r	.	4r	.	4r	.	8ee-\	-da-	4r	4r
8G\J	x 6	.	.	.	.	.	.	.	.	8dd\	-mus	.	.
=10	=10	=10	=10	=10	=10	=10	=10	=10	=10	=10	=10	=10	=10
!LO:LB:g=original	!	!	!	!	!	!	!	!	!	!	!	!	!
8G\L	.	2.r	2.r	0.r	.	0.r	.	0.r	.	4ee-\	te	0.r	0.r
8F\	.	.	.	.	.	.	.	.	.	.	.	.	.
8E-\	.	.	.	.	.	.	.	.	.	8r	.	.	.
8A-\	.	.	.	.	.	.	.	.	.	8cc\	lau-	.	.
8G\	.	.	.	.	.	.	.	.	.	8b-\	-da-	.	.
8F\J	.	.	.	.	.	.	.	.	.	8a-\	-mus	.	.
=11	=11	=11	=11	=11	=11	=11	=11	=11	=11	=11	=11	=11	=11
4E-\	.	4r	8r	.	.	.	.	.	.	4g/	te	.	.
.	.	.	8b-/L	.	.	.	.	.	.	.	.	.	.
8r	.	8r	8g/	.	.	.	.	.	.	4r	.	.	.
8G\L	x 6	8b-\	8e-/J	.	.	.	.	.	.	.	.	.	.
8A-\	x _	8cc\L	4cc\	.	.	.	.	.	.	4r	.	.	.
8A-\J	x x	16ee-\L	.	.	.	.	.	.	.	.	.	.	.
.	.	16dd\JJ	.	.	.	.	.	.	.	.	.	.	.
=12	=12	=12	=12	=12	=12	=12	=12	=12	=12	=12	=12	=12	=12
!LO:TX:t=P:problem=mixed beam	!	!	!	!	!	!	!	!	!	!	!	!	!
8A-\L	.	8cc\L	8r	.	.	.	.	.	.	1.r	.	.	.
8AA-/J	.	8ee-\J	8cc\L	.	.	.	.	.	.	.	.	.	.
8r	.	8r	8a-\	.	.	.	.	.	.	.	.	.	.
8A-\L	x 6	8cc\	8f\J	.	.	.	.	.	.	.	.	.	.
8B-\	x _	8dd\L	4dd\	.	.	.	.	.	.	.	.	.	.
8B-\J	x x	16ff\L	.	.	.	.	.	.	.	.	.	.	.
.	.	16ee-\JJ	.	.	.	.	.	.	.	.	.	.	.
=13	=13	=13	=13	=13	=13	=13	=13	=13	=13	=13	=13	=13	=13
!LO:TX:t=P:problem=mixed beam	!	!	!	!	!	!	!	!	!	!	!	!	!
8B-\L	.	8dd\L	8r	.	.	.	.	.	.	.	.	.	.
8BB-/J	.	8ff\J	8dd\L	.	.	.	.	.	.	.	.	.	.
8r	.	8r	8b-\	.	.	.	.	.	.	.	.	.	.
8B-\L	.	8g/L	8dd\	.	.	.	.	.	.	.	.	.	.
8c\	.	8g/	8ee-\	.	.	.	.	.	.	.	.	.	.
8c\J	.	8g/J	8gg\J	.	.	.	.	.	.	.	.	.	.
=14	=14	=14	=14	=14	=14	=14	=14	=14	=14	=14	=14	=14	=14
4A-\	6 5	4cc\	8ff\L	0.r	.	0.r	.	0.r	.	2.r	.	0.r	0.r
.	.	.	16aa-\L	.	.	.	.	.	.	.	.	.	.
.	.	.	16gg\JJ	.	.	.	.	.	.	.	.	.	.
8r	.	8r	8ff\L	.	.	.	.	.	.	.	.	.	.
!LO:TX:t=P:problem=mixed beam	!	!	!	!	!	!	!	!	!	!	!	!	!
8F\L	.	16a-/LL	16ff\L	.	.	.	.	.	.	.	.	.	.
.	.	16g/JJ	16ee-\JJ	.	.	.	.	.	.	.	.	.	.
8B-\	.	8f/L	8dd\L	.	.	.	.	.	.	.	.	.	.
8BB-/J	.	16e-/L	16cc\L	.	.	.	.	.	.	.	.	.	.
.	.	16f/JJ	16dd\JJ	.	.	.	.	.	.	.	.	.	.
=15	=15	=15	=15	=15	=15	=15	=15	=15	=15	=15	=15	=15	=15
8E-\L	.	4g/	4ee-\	.	.	.	.	.	.	4r	.	.	.
8F\	.	.	.	.	.	.	.	.	.	.	.	.	.
8G\	x 6	4r	4r	.	.	.	.	.	.	8r	.	.	.
8D\	.	.	.	.	.	.	.	.	.	8b-\	Lau-	.	.
8E-\	.	4r	4r	.	.	.	.	.	.	8ee-\	-da-	.	.
8F\J	x 6	.	.	.	.	.	.	.	.	8dd\	-mus	.	.
=16	=16	=16	=16	=16	=16	=16	=16	=16	=16	=16	=16	=16	=16
!	!	!	!	!	!	!	!	!	!	!LO:LB:g=original	!	!	!
8G\L	x 6	2.r	2.r	.	.	.	.	.	.	4ee-\	te	.	.
8F\	.	.	.	.	.	.	.	.	.	.	.	.	.
8E-\	.	.	.	.	.	.	.	.	.	8r	.	.	.
8A-\	.	.	.	.	.	.	.	.	.	8cc\	Lau-	.	.
8G\	.	.	.	.	.	.	.	.	.	8b-\	-da-	.	.
8F\J	.	.	.	.	.	.	.	.	.	8a-\	-mus	.	.
=17	=17	=17	=17	=17	=17	=17	=17	=17	=17	=17	=17	=17	=17
4E-\	.	8r	8r	.	.	.	.	.	.	4g/	te	.	.
.	.	8G/L	8G/L	.	.	.	.	.	.	.	.	.	.
4r	.	8G/	8G/	.	.	.	.	.	.	8b-\	be-	.	.
.	.	8G/	8G/	.	.	.	.	.	.	8b-\	-ne-	.	.
4r	.	8G/	8G/	.	.	.	.	.	.	8b-\	-di-	.	.
.	.	8G/J	8G/J	.	.	.	.	.	.	16ee-\	-ci-	.	.
.	.	.	.	.	.	.	.	.	.	16ee-\	-mus	.	.
=18	=18	=18	=18	=18	=18	=18	=18	=18	=18	=18	=18	=18	=18
!	!	!LO:LB:g=original	!LO:LB:g=original	!	!	!	!	!	!	!	!	!	!
1.r	.	8A-/L	8A-X/L	0.r	.	0.r	.	0.r	.	8cc\	te	0.r	0.r
.	.	8A-/	8A-/	.	.	.	.	.	.	4cc\	A-	.	.
.	.	8A-/	8A-/	.	.	.	.	.	.	.	.	.	.
.	.	8A-/	8A-/	.	.	.	.	.	.	8cc\	-do-	.	.
.	.	8A-/	8A-/	.	.	.	.	.	.	8cc\	-ra-	.	.
.	.	8A-/J	8A-/J	.	.	.	.	.	.	8ff\	-mus	.	.
=19	=19	=19	=19	=19	=19	=19	=19	=19	=19	=19	=19	=19	=19
.	.	8B-/L	8B-/L	.	.	.	.	.	.	8dd\	Te	.	.
.	.	8e-/	8e-/	.	.	.	.	.	.	8b-\	glo-	.	.
.	.	8a-/	8a-/	.	.	.	.	.	.	8cc\	-ri-	.	.
.	.	8g/	8g/	.	.	.	.	.	.	8b-\	-fi-	.	.
.	.	8a-/	8a-/	.	.	.	.	.	.	8cc\	-ca-	.	.
!	!	!LO:SIC:v:s=8f/J	!	!	!	!	!	!	!	!	!	!	!
.	.	8e-/J	8f/J	.	.	.	.	.	.	8dd\	-mus	.	.
=20	=20	=20	=20	=20	=20	=20	=20	=20	=20	=20	=20	=20	=20
8E-\L	.	4e-/	4e-/	.	.	.	.	.	.	4ee-\	te	.	.
8F\	.	.	.	.	.	.	.	.	.	.	.	.	.
8G\	x 6	8r	8r	.	.	.	.	.	.	4r	.	.	.
8E-\	.	8b-\L	8b-\L	.	.	.	.	.	.	.	.	.	.
8F\	.	8ee-\	8ee-\	.	.	.	.	.	.	4r	.	.	.
8G\J	x 6	8dd\J	8dd\J	.	.	.	.	.	.	.	.	.	.
=21	=21	=21	=21	=21	=21	=21	=21	=21	=21	=21	=21	=21	=21
!LO:LB:g=original	!	!	!	!	!	!	!	!	!	!	!	!	!
8G\L	.	4ee-\	4ee-\	.	.	.	.	.	.	2.r	.	.	.
8F\	.	.	.	.	.	.	.	.	.	.	.	.	.
8E-\	.	8r	8r	.	.	.	.	.	.	.	.	.	.
8A-\	.	8cc\L	8cc\L	.	.	.	.	.	.	.	.	.	.
8G\	.	8b-\	8b-\	.	.	.	.	.	.	.	.	.	.
8F\J	.	8a-\J	8a-\J	.	.	.	.	.	.	.	.	.	.
=22	=22	=22	=22	=22	=22	=22	=22	=22	=22	=22	=22	=22	=22
8E-\L	.	4g/	4g/	1.r	.	1.r	.	1.r	.	8r	.	1.r	1.r
16E-\L	.	.	.	.	.	.	.	.	.	4b-\	be-	.	.
16F\JJ	.	.	.	.	.	.	.	.	.	.	.	.	.
8G\L	x 6	8r	8r	.	.	.	.	.	.	.	.	.	.
8G\	x _	8b-/L	8b-/L	.	.	.	.	.	.	8b-\	-ne-	.	.
8G\	.	8g/	8g/	.	.	.	.	.	.	8b-\	-di-	.	.
8G\J	x x	8e-/J	8e-/J	.	.	.	.	.	.	16ee-\	-ci-	.	.
.	.	.	.	.	.	.	.	.	.	16b-\	-mus	.	.
=23	=23	=23	=23	=23	=23	=23	=23	=23	=23	=23	=23	=23	=23
!	!	!	!	!	!	!	!	!	!	!LO:LB:g=original	!	!	!
8A-\L	.	4cc\	4cc\	.	.	.	.	.	.	8cc\	te	.	.
8A-\	.	.	.	.	.	.	.	.	.	4cc\	A-	.	.
8A-\	.	8r	8r	.	.	.	.	.	.	.	.	.	.
8A-\	.	8cc\L	8cc\L	.	.	.	.	.	.	8cc\	-do-	.	.
8A-\	x 6	8a-\	8a-\	.	.	.	.	.	.	8cc\	-ra-	.	.
8A-\J	.	8f\J	8f\J	.	.	.	.	.	.	(16ff\LL	-mus	.	.
.	.	.	.	.	.	.	.	.	.	16cc\JJ)	.	.	.
=24	=24	=24	=24	=24	=24	=24	=24	=24	=24	=24	=24	=24	=24
!LO:TX:t=P:problem=mixed beam	!	!LO:TX:t=P:problem=mixed beam	!	!	!	!	!	!	!	!	!	!	!
8B-\L	.	8dd\L	8dd\L	2.r	.	2.r	.	2.r	.	8dd\	te	2.r	2.r
8G\	x 6	16ee-\L	8b-\	.	.	.	.	.	.	8b-\	glo-	.	.
.	.	16e-/JJ	.	.	.	.	.	.	.	.	.	.	.
8A-\	.	8e-/L	8cc\	.	.	.	.	.	.	(16cc\LL	-ri-	.	.
.	.	.	.	.	.	.	.	.	.	16b-\JJ)	.	.	.
8F\	.	16f/L	8cc\	.	.	.	.	.	.	(16a-\LL	-fi-	.	.
.	.	16e-/JJ	.	.	.	.	.	.	.	16g\JJ)	.	.	.
!	!	!	!	!	!	!	!	!	!	!LO:TX:t=P:problem=kreska taktowa poprawiona na 8g	!	!	!
8B-\	6 4	8e-/L	8b-\	.	.	.	.	.	.	8g\	-ca-	.	.
8BB-/J	5 3	8d/J	8b-\J	.	.	.	.	.	.	16f/LL	-mus	.	.
.	.	.	.	.	.	.	.	.	.	16e-/JJ	.	.	.
=25	=25	=25	=25	=25	=25	=25	=25	=25	=25	=25	=25	=25	=25
!	!	!LO:TX:t=P:problem=mixed beam	!LO:SIC:v:s=8g/	!	!	!	!	!	!	!	!	!	!
8E-\	.	8e-/L	8a-/	8r	.	8r	.	8r	.	8e-/	te	8r	8r
4C/	.	8ee-\	4gg\	4c\	Gra-	4c\	Gra-	4e-\	Gra-	4g\	Gra-	8G/L	4G/
.	.	8ee-\	.	.	.	.	.	.	.	.	.	8G/	.
8BBn/L	x 6	8dd\	8gg\L	16Bn\	-ti-	16d\	-ti-	16g\	-ti-	16g\	-ti-	8G/	8G/L
.	.	.	.	16B\	-as	16d\	-as	16g\	-as	16g\	-as	.	.
8C/	.	8ee-\	8gg\	8c\	a-	8e-\	a-	8g\	a-	8cc\	a-	8G/	8G/
8BBn/J	.	8dd\J	8gg\J	16G\	-gi-	16d\	-gi-	16g\	-gi-	16dd\	-gi-	8G/J	8G/J
.	.	.	.	16G\	-mus	16d\	-mus	16g\	-mus	16dd\	-mus	.	.
=26	=26	=26	=26	=26	=26	=26	=26	=26	=26	=26	=26	=26	=26
!	!	!	!	!LO:LB:g=original	!	!	!	!	!	!	!	!	!
4C/	.	4ee-\	4gg\	4c\	ti-	4c\	ti-	4g\	ti-	4ee-\	ti-	4G/	4G/
4GG/	x n	4dd\	4gg\	4G\	-bi	4Bn\	-bi	4g\	-bi	4dd\	-bi	4G/	4G/
8G\L|	.	4r	4r	8G\	prop-	4r	.	4r	.	4r	.	4r	4r
8F\J|	.	.	.	8F\	-ter	.	.	.	.	.	.	.	.
=27	=27	=27	=27	=27	=27	=27	=27	=27	=27	=27	=27	=27	=27
!	!	!	!	!	!	!LO:LB:g=original	!	!	!	!	!	!	!
8E-\L	.	8g/L	8cc\L	8E-\	ma-	8c\	prop-	8g\	prop-	8cc\	prop-	1.r	1.r
8C\	.	8g/J	8b-\J	8C\	-gnam	8e-\	-ter	8g\	-ter	8b-\	-ter	.	.
*	*	*	*	*	*ij	*	*	*	*	*	*	*	*
8F\	.	8a-/L	8a-\L	8F\	ma-	8c\	ma-	8a-\	ma-	8a-\	ma-	.	.
!	!	!	!	!	!	!	!	!LO:TX:t=P:problem=16g poprawione na 16a	!	!	!	!	!
8E-\	.	16a-/L	16a-\L	8E-\	-gnam	8c\	-gnam	(16a-\LL	-gnam	8a-\	-gnam	.	.
*	*	*	*	*	*Xij	*	*	*	*	*	*	*	*
!	!	!	!	!	!	!	!	!LO:TX:t=P:problem=16f poprawione na 16g	!	!	!	!	!
.	.	16g/JJ	16a-\JJ	.	.	.	.	16g\JJ)	.	.	.	.	.
8D\	.	8f/L	8b-\L	8D/	glo-	8f\	glo-	8f\	glo-	8b-\	glo-	.	.
8BB-\J	.	8f/J	16b-\L	16BB-/	-ri-	16B-\	-ri-	16f\	-ri-	16b-\	-ri-	.	.
.	.	.	16a-\JJ	16BB-/	-am	16B-\	-am	16f\	-am	16a-\	-am	.	.
=28	=28	=28	=28	=28	=28	=28	=28	=28	=28	=28	=28	=28	=28
!	!	!LO:LB:g=original	!LO:LB:g=original	!	!	!	!	!	!	!	!	!	!
!	!	!LO:TX:t=P:problem=mixed beam	!LO:TX:t=P:problem=mixed beam	!	!	!	!	!LO:LB:g=original	!	!LO:LB:g=original	!	!	!
4E-\	.	8e-/L	8g/L	4E-\	tu-	4B-\	tu-	4g\	tu-	4g/	tu-	.	.
.	.	8ee-\	8gg\	.	.	.	.	.	.	.	.	.	.
4E-\	.	8ee-\	8gg\	4E-\	-am	4B-\	-am	4e-\	-am	4g/	-am	.	.
.	.	8ee-\	8gg\	.	.	.	.	.	.	.	.	.	.
4r	.	8ee-\	8gg\	4r	.	4r	.	4r	.	4r	.	.	.
.	.	8ee-\J	8gg\J	.	.	.	.	.	.	.	.	.	.
=29	=29	=29	=29	=29	=29	=29	=29	=29	=29	=29	=29	=29	=29
8E-\L	.	8ee-\L	8gg\L	8E-\	prop-	8B-\	prop-	8g\	prop-	8ee-\	prop-	8G/L	8e-\L
8E-\	.	16gg\L	16bb-\L	8E-\	-ter	8B-\	-ter	8g\	-ter	8ee-\	-ter	8G/	8e-\
.	.	16ff\JJ	16aa-\JJ	.	.	.	.	.	.	.	.	.	.
8E-\	.	8ee-\L	8gg\L	8E-\	ma-	8B-\	ma-	8g\	ma-	8ee-\	ma-	8G/	8e-\
8G\	x 6	8ee-\	8gg\	8G\	-gnam	8B-\	-gnam	8g\	-gnam	8ee-\	-gnam	8G/	8e-\
*	*	*	*	*	*ij	*	*ij	*	*ij	*	*ij	*	*
8E-\	.	8ee-\	8gg\	8E-\	ma-	8B-\	ma-	8g\	ma-	8ee-\	ma-	8G/	8e-\
8BB-\J	.	8dd\J	8ff\J	8BB-/	-gnam	8B-\	-gnam	8f\	-gnam	8dd\	-gnam	8B-/J	8f\J
*	*	*	*	*	*Xij	*	*Xij	*	*Xij	*	*Xij	*	*
=30	=30	=30	=30	=30	=30	=30	=30	=30	=30	=30	=30	=30	=30
!LO:LB:g=original	!	!	!	!	!	!	!	!	!	!	!	!	!
4E-\	.	8ee-\L	8gg\L	8E-\	glo-	8B-\	glo-	8g\	glo-	8ee-\	glo-	4e-\	4g\
.	.	8b-\J	8ee-\J	16E-\	-ri-	16B-\	-ri-	16g\	-ri-	16ee-\	-ri-	.	.
.	.	.	.	16E-\	-am	16B-\	-am	16g\	-am	16ee-\	-am	.	.
4r	.	8ee-\L	8ee-\L	4r	.	4r	.	4r	.	8ee-\L	glo-	4r	4r
.	.	16dd\L	16dd\L	.	.	.	.	.	.	16dd\L	.	.	.
.	.	16cc\JJ	16cc\JJ	.	.	.	.	.	.	16cc\JJ	.	.	.
4r	.	16b-/LL	16b-/LL	4r	.	4r	.	4r	.	16b-\LL	.	4r	4r
.	.	16a-/	16a-/	.	.	.	.	.	.	16a-\	.	.	.
.	.	16g/	16g/	.	.	.	.	.	.	16g\	.	.	.
.	.	16f/JJ	16f/JJ	.	.	.	.	.	.	16f\JJ	.	.	.
=31	=31	=31	=31	=31	=31	=31	=31	=31	=31	=31	=31	=31	=31
4E-\	.	8e-/L	8e-/L	8E-\	glo-	8B-\	Glo-	8g\	glo-	8e-/	.	4e-\	4g\
.	.	8e-/J	8e-/J	16E-\	-ri-	16B-\	-ri-	16g\	-ri-	16e-/	-ri-	.	.
.	.	.	.	16E-\	-am	16B-\	-am	16g\	-am	16e-/	-am	.	.
4r	.	8e-/L	8e-/L	4r	.	4r	.	4r	.	8e-/L	Glo-	4r	4r
.	.	16f/L	16f/L	.	.	.	.	.	.	16f/L	.	.	.
.	.	16g/JJ	16g/JJ	.	.	.	.	.	.	16g/JJ	.	.	.
4r	.	16a-\LL	16a-\LL	4r	.	4r	.	4r	.	16a-\LL	.	4r	4r
.	.	16b-\	16b-\	.	.	.	.	.	.	16b-\	.	.	.
.	.	16cc\	16cc\	.	.	.	.	.	.	16cc\	.	.	.
.	.	16dd\JJ	16dd\JJ	.	.	.	.	.	.	16dd\JJ	.	.	.
=32	=32	=32	=32	=32	=32	=32	=32	=32	=32	=32	=32	=32	=32
!	!	!	!	!LO:LB:g=original	!	!LO:LB:g=original	!	!	!	!	!	!	!
8E-\L	.	8ee-\L	8ee-\L	8E-\	glo-	8B-\	glo-	8g\	glo-	8ee-\	.	8e-\L	8g\L
8E-\	.	16gg\L	16bb-\L	16E-\	-ri-	16B-\	-ri-	16g\	-ri-	16ee-\	-ri-	8e-\	8g\
.	.	16ff\JJ	16aa-\JJ	16E-\	-am	16B-\	-am	16g\	-am	16ee-\	-am	.	.
8E-\	.	8ee-\L	8gg\L	8E-\	prop-	8B-\	prop-	8g\	prop-	8ee-\	tu-	8e-\	8g\
8G\	.	8ee-\	8gg\	8G\	-ter	8B-\	-ter	8g\	-ter	8ee-\	-am	8e-\	8g\
8E-\	.	8ee-\	8gg\	8E-\	ma-	8B-\	ma-	8g\	ma-	8ee-\	ma-	8e-\	8g\
!LO:SIC:v:s=8B-\J	!	!	!	!	!	!	!	!	!	!	!	!	!
8C\J	.	8dd\J	8ff\J	8BB-/	-gnam	8B-\	-gnam	8f\	-gnam	8dd\	-gnam	8f\J	8b-\J
=33	=33	=33	=33	=33	=33	=33	=33	=33	=33	=33	=33	=33	=33
!	!	!	!	!	!	!	!	!	!	!	!	!LO:LB:g=original	!
8E-\L	.	4.ee-\	4.gg\	4.E-\	glo-	4B-\	glo-	4.g\	Glo-	4.ee-\	glo-	4g\	4b-\
8D\J	.	.	.	.	.	.	.	.	.	.	.	.	.
8C/L	.	.	.	.	.	8c\	.	.	.	.	.	8r	8r
8AA-/J	.	16ff\LL	16aa-\LL	16AA-/	-ri-	8c\	-ri-	16a-\	-ri-	16ff\	-ri-	8a-\	8cc\
.	.	16ee-\JJ	16gg\JJ	16AA-/	-am	.	.	16g\	-am	16ee-\	-am	.	.
*	*	*Xtuplet	*	*	*	*	*	*	*	*	*	*	*
!	!	!LO:N:vis=4	!	!	!	!	!	!	!	!	!	!	!
4BB-/	.	12dd\	4ff\	4BB-/	tu-	4B-\	tu-	4f\	tu-	4dd\	tu-	4f\	4b-\
!	!	!LO:N:vis=4	!	!	!	!	!	!	!	!	!	!	!
.	.	12cc\	.	.	.	.	.	.	.	.	.	.	.
!	!	!LO:N:vis=4	!	!	!	!	!	!	!	!	!	!	!
.	.	12dd\	.	.	.	.	.	.	.	.	.	.	.
=34	=34	=34	=34	=34	=34	=34	=34	=34	=34	=34	=34	=34	=34
!	!	!	!	!	!	!	!	!	!	!LO:LB:g=original	!	!	!LO:LB:g=original
2E-\	.	2ee-\	2ee-\	2E-\	-am	2B-\	-am	2g\	-am	2ee-\	-am	2e-\	2g\
!LO:TX:b:t=34	!	!	!	!	!	!	!	!	!	!	!	!	!
4r	.	4r	4r	4r	.	4r	.	4r	.	4r	.	4r	4r
=35||	=35||	=35||	=35||	=35||	=35||	=35||	=35||	=35||	=35||	=35||	=35||	=35||	=35||
*M4/4	*	*M4/4	*M4/4	*M4/4	*	*M4/4	*	*M4/4	*	*M4/4	*	*M4/4	*M4/4
*met(c)	*	*met(c)	*met(c)	*met(c)	*	*met(c)	*	*met(c)	*	*met(c)	*	*met(c)	*met(c)
!LO:TX:b:t=Domine	!	!	!	!	!	!	!	!	!	!	!	!	!
!LO:TX:a:t=Solo:rj	!	!LO:TX:b:t=Domine:rj	!LO:TX:b:t=Domine	!LO:TX:b:t=Domine Deus	!	!	!	!	!	!LO:TX:b:t=Domine Deus	!	!LO:TX:b:t=Domine Deus	!LO:TX:b:t=Domine Deus
4E-\	.	4e-/	4e-/	00r	.	0r	.	00r	.	00r	.	00r	00r
16r	.	16r	16r	.	.	.	.	.	.	.	.	.	.
16BB-/LL	.	16B-/LL	16B-/LL	.	.	.	.	.	.	.	.	.	.
16C/	.	16c/	16c/	.	.	.	.	.	.	.	.	.	.
16D/JJ	.	16d/JJ	16d/JJ	.	.	.	.	.	.	.	.	.	.
!	!	!LO:LB:g=original	!LO:LB:g=original	!	!	!	!	!	!	!	!	!	!
4E-\	.	4e-/	4e-/	.	.	.	.	.	.	.	.	.	.
16r	.	16r	16r	.	.	.	.	.	.	.	.	.	.
16BB-/LL	.	16B-/LL	16B-/LL	.	.	.	.	.	.	.	.	.	.
16C/	.	16c/	16c/	.	.	.	.	.	.	.	.	.	.
16D/JJ	.	16d/JJ	16d/JJ	.	.	.	.	.	.	.	.	.	.
=36	=36	=36	=36	=36	=36	=36	=36	=36	=36	=36	=36	=36	=36
16E-\LL	.	16e-/LL	16e-/LL	.	.	.	.	.	.	.	.	.	.
16F\	.	16f/	16f/	.	.	.	.	.	.	.	.	.	.
16G\	.	16g/	16g/	.	.	.	.	.	.	.	.	.	.
16A-\JJ	.	16a-/JJ	16a-/JJ	.	.	.	.	.	.	.	.	.	.
16B-\LL	.	16b-\LL	16b-\LL	.	.	.	.	.	.	.	.	.	.
16c\	.	16cc\	16cc\	.	.	.	.	.	.	.	.	.	.
16B-\	.	16b-\	16b-\	.	.	.	.	.	.	.	.	.	.
16A-\JJ	.	16a-\JJ	16a-\JJ	.	.	.	.	.	.	.	.	.	.
!LO:TX:t=P:problem=mixed beam	!	!	!	!	!	!	!	!	!	!	!	!	!
8G\L	.	8g/L	8g/L	.	.	.	.	.	.	.	.	.	.
8A-\	.	8a-/	8a-/	.	.	.	.	.	.	.	.	.	.
8B-\	.	8b-/	8b-/	.	.	.	.	.	.	.	.	.	.
8BB-/J	.	8B-/J	8B-/J	.	.	.	.	.	.	.	.	.	.
=37	=37	=37	=37	=37	=37	=37	=37	=37	=37	=37	=37	=37	=37
4E-\	.	4e-/	4e-/	.	.	4B-\	Do-	.	.	.	.	.	.
16r	.	4r	4r	.	.	8B-\	-mi-	.	.	.	.	.	.
16BB-\LL	.	.	.	.	.	.	.	.	.	.	.	.	.
16C\	.	.	.	.	.	8B-\	-ne	.	.	.	.	.	.
16D\JJ	.	.	.	.	.	.	.	.	.	.	.	.	.
4E-\	.	2r	2r	.	.	8G/	De-	.	.	.	.	.	.
.	.	.	.	.	.	8E-/	-us	.	.	.	.	.	.
16r	.	.	.	.	.	8B-\	Rex	.	.	.	.	.	.
16BB-\LL	x 6	.	.	.	.	.	.	.	.	.	.	.	.
16C\	.	.	.	.	.	8B-\	Coe-	.	.	.	.	.	.
16D\JJ	.	.	.	.	.	.	.	.	.	.	.	.	.
=38	=38	=38	=38	=38	=38	=38	=38	=38	=38	=38	=38	=38	=38
!	!	!	!	!	!	!LO:LB:g=original	!	!	!	!	!	!	!
4E-\	.	1r	1r	.	.	8G/	-le-	.	.	.	.	.	.
.	.	.	.	.	.	8E-/	-ſtis	.	.	.	.	.	.
16r	.	.	.	.	.	8e-\	De-	.	.	.	.	.	.
16F\LL	.	.	.	.	.	.	.	.	.	.	.	.	.
16G\	.	.	.	.	.	8e-\	-us	.	.	.	.	.	.
16A-\JJ	.	.	.	.	.	.	.	.	.	.	.	.	.
!LO:LB:g=original	!	!	!	!	!	!	!	!	!	!	!	!	!
4B-\	.	.	.	.	.	8d\	Pa-	.	.	.	.	.	.
.	.	.	.	.	.	8B-\	-ter	.	.	.	.	.	.
16r	.	.	.	.	.	8e-\	De-	.	.	.	.	.	.
16G\LL	.	.	.	.	.	.	.	.	.	.	.	.	.
16A-\	.	.	.	.	.	8e-\	-us	.	.	.	.	.	.
16B-\JJ	.	.	.	.	.	.	.	.	.	.	.	.	.
=39	=39	=39	=39	=39	=39	=39	=39	=39	=39	=39	=39	=39	=39
!LO:TX:t=P:problem=mixed beam	!	!	!	!	!	!	!	!	!	!	!	!	!
8c\L	.	2r	2r	00r	.	8e-\	Pa-	0r	.	00r	.	00r	00r
8A-\	.	.	.	.	.	16f\	-ter	.	.	.	.	.	.
.	.	.	.	.	.	16e-\	O-	.	.	.	.	.	.
8B-\	.	.	.	.	.	8.d\	-mni	.	.	.	.	.	.
8BB-/J	.	.	.	.	.	.	.	.	.	.	.	.	.
.	.	.	.	.	.	16d\	po-	.	.	.	.	.	.
4E-\	.	8r	8r	.	.	4e-\	-tens	.	.	.	.	.	.
.	.	8b-\L	8gg\	.	.	.	.	.	.	.	.	.	.
!	!	!	!LO:TX:t=P:problem=mixed beam	!	!	!	!	!	!	!	!	!	!
16r	.	8b-\	16b-/LL	.	.	4r	.	.	.	.	.	.	.
16E-\LL	.	.	16gg\	.	.	.	.	.	.	.	.	.	.
16D\	.	8b-\J	16ff\	.	.	.	.	.	.	.	.	.	.
16C\JJ	.	.	16ee-\JJ	.	.	.	.	.	.	.	.	.	.
=40	=40	=40	=40	=40	=40	=40	=40	=40	=40	=40	=40	=40	=40
4D/	x 6	8b-\L	8ff\L	.	.	00r	.	.	.	.	.	.	.
.	.	8b-\	8ff\J	.	.	.	.	.	.	.	.	.	.
16r	.	8b-\	16b-\LL	.	.	.	.	.	.	.	.	.	.
16D/LL	.	.	16ff\	.	.	.	.	.	.	.	.	.	.
16C/	.	8b-\J	16ee-\	.	.	.	.	.	.	.	.	.	.
16BB-/JJ	.	.	16dd\JJ	.	.	.	.	.	.	.	.	.	.
4C/	x 7	8b-\L	8ee-\L	.	.	.	.	.	.	.	.	.	.
.	.	8b-\	8ee-\J	.	.	.	.	.	.	.	.	.	.
16r	.	8an\	16an\LL	.	.	.	.	.	.	.	.	.	.
16C/LL	x 6\	.	16ee-\	.	.	.	.	.	.	.	.	.	.
16BB-/	.	8a\J	16dd\	.	.	.	.	.	.	.	.	.	.
16AAn/JJ	.	.	16cc\JJ	.	.	.	.	.	.	.	.	.	.
=41	=41	=41	=41	=41	=41	=41	=41	=41	=41	=41	=41	=41	=41
!LO:TX:t=P:problem=mixed beam	!	!	!	!	!	!	!	!LO:TX:a:t=Solo	!	!	!	!	!
8BB-/L	.	16b-\LL	8dd\L	.	.	.	.	2r	.	.	.	.	.
.	.	16an\	.	.	.	.	.	.	.	.	.	.	.
8E-\	.	16b-\	16gg\L	.	.	.	.	.	.	.	.	.	.
.	.	16cc\JJ	16cc\JJ	.	.	.	.	.	.	.	.	.	.
8F\	x n	8f/L	8.ccT\L	.	.	.	.	.	.	.	.	.	.
8FF/J	.	8an/J	.	.	.	.	.	.	.	.	.	.	.
.	.	.	16cc\Jk	.	.	.	.	.	.	.	.	.	.
4BB-/	.	4b-/	4b-\	.	.	.	.	4f\	Do-	.	.	.	.
16r	.	4r	4r	.	.	.	.	8f\	-mi-	.	.	.	.
16F\LL	x n	.	.	.	.	.	.	.	.	.	.	.	.
16G\	.	.	.	.	.	.	.	8f\	-ne	.	.	.	.
16An\JJ	.	.	.	.	.	.	.	.	.	.	.	.	.
=42	=42	=42	=42	=42	=42	=42	=42	=42	=42	=42	=42	=42	=42
!LO:TX:t=P:problem=mixed beam	!	!	!	!	!	!	!	!	!	!	!	!	!
8B-\L	.	1r	1r	.	.	.	.	8d\	Fi-	.	.	.	.
8BB-/J	.	.	.	.	.	.	.	8B-/	-li	.	.	.	.
16r	.	.	.	.	.	.	.	8f\	V-	.	.	.	.
16F\LL	.	.	.	.	.	.	.	.	.	.	.	.	.
16G\	.	.	.	.	.	.	.	8f\	-ni-	.	.	.	.
16An\JJ	.	.	.	.	.	.	.	.	.	.	.	.	.
!LO:TX:t=P:problem=mixed beam	!	!	!	!	!	!	!	!	!	!	!	!	!
8B-\L	.	.	.	.	.	.	.	8d\	-ge-	.	.	.	.
8BB-/J	.	.	.	.	.	.	.	16B-/	-ni-	.	.	.	.
.	.	.	.	.	.	.	.	16B-/	-te	.	.	.	.
16r	.	.	.	.	.	.	.	[<4b-\	Je-	.	.	.	.
16D\LL	x 6	.	.	.	.	.	.	.	.	.	.	.	.
16E-\	.	.	.	.	.	.	.	.	.	.	.	.	.
16F\JJ	.	.	.	.	.	.	.	.	.	.	.	.	.
=43	=43	=43	=43	=43	=43	=43	=43	=43	=43	=43	=43	=43	=43
!LO:TX:t=P:problem=mixed beam	!	!	!	!	!	!	!	!	!	!	!	!	!
8G\L	.	2r	2r	00r	.	.	.	8b-\]	.	00r	.	00r	00r
8E-\	.	.	.	.	.	.	.	(16cc\LL	-su	.	.	.	.
.	.	.	.	.	.	.	.	16b-\JJ)	.	.	.	.	.
8F\	x n	.	.	.	.	.	.	4an\	Chri-	.	.	.	.
8FF/J	.	.	.	.	.	.	.	.	.	.	.	.	.
4BB-/	.	4r	8r	.	.	.	.	4b-\	-ste	.	.	.	.
.	.	.	8ff\	.	.	.	.	.	.	.	.	.	.
16r	.	16r	[<4gg\	.	.	.	.	4r	.	.	.	.	.
16B-\LL	x 6	16dd\LL	.	.	.	.	.	.	.	.	.	.	.
16A-\	.	16cc\	.	.	.	.	.	.	.	.	.	.	.
16G\JJ	.	16b-\JJ	.	.	.	.	.	.	.	.	.	.	.
=44	=44	=44	=44	=44	=44	=44	=44	=44	=44	=44	=44	=44	=44
!	!	!	!LO:LB:g=original	!	!	!	!	!	!	!	!	!	!
!	!	!LO:LB:g=original	!LO:TX:t=P:problem=brak dokończenia ligatury	!	!	!	!	!	!	!	!	!	!
4A-\	x 7	4cc\	8gg\L]	.	.	0r	.	0r	.	.	.	.	.
.	.	.	16ff\L	.	.	.	.	.	.	.	.	.	.
.	.	.	16ee-\JJ	.	.	.	.	.	.	.	.	.	.
16r	.	16r	[4ff\	.	.	.	.	.	.	.	.	.	.
16A-\LL	x 6	16cc\LL	.	.	.	.	.	.	.	.	.	.	.
16G\	.	16b-\	.	.	.	.	.	.	.	.	.	.	.
!	!	!LO:TX:t=P:problem=- above	!	!	!	!	!	!	!	!	!	!	!
16F\JJ	.	16a-X\JJ	.	.	.	.	.	.	.	.	.	.	.
!LO:LB:g=original	!	!	!	!	!	!	!	!	!	!	!	!	!
4G\	x 7	4b-\	8ff\L]	.	.	.	.	.	.	.	.	.	.
.	.	.	16ee-\L	.	.	.	.	.	.	.	.	.	.
.	.	.	16dd\JJ	.	.	.	.	.	.	.	.	.	.
16r	.	16r	[<4ee-\	.	.	.	.	.	.	.	.	.	.
16G\LL	x 6	16b-/LL	.	.	.	.	.	.	.	.	.	.	.
16F\	.	16a-/	.	.	.	.	.	.	.	.	.	.	.
16E-\JJ	.	16g/JJ	.	.	.	.	.	.	.	.	.	.	.
=45	=45	=45	=45	=45	=45	=45	=45	=45	=45	=45	=45	=45	=45
4F\	x 7	4a-/	8ee-\L]	.	.	.	.	.	.	.	.	.	.
.	x 6	.	16dd\L	.	.	.	.	.	.	.	.	.	.
.	.	.	16cc\JJ	.	.	.	.	.	.	.	.	.	.
16r	.	16r	8cc\L	.	.	.	.	.	.	.	.	.	.
16F\LL	x 5	16a-\LL	.	.	.	.	.	.	.	.	.	.	.
16G\	x _	16b-\	8ff\J	.	.	.	.	.	.	.	.	.	.
16A-\JJ	x x	16cc\JJ	.	.	.	.	.	.	.	.	.	.	.
!LO:TX:t=P:problem=mixed beam	!	!	!	!	!	!	!	!	!	!	!	!	!
8B-\L	.	8dd\L	8ff\L	.	.	.	.	.	.	.	.	.	.
8E-\	.	16ee-\L	16gg\L	.	.	.	.	.	.	.	.	.	.
.	.	16ff\JJ	16aa-\JJ	.	.	.	.	.	.	.	.	.	.
8B-\	.	8.dd\L	4ffT\	.	.	.	.	.	.	.	.	.	.
8BB-/J	.	.	.	.	.	.	.	.	.	.	.	.	.
.	.	16dd\Jk	.	.	.	.	.	.	.	.	.	.	.
=46	=46	=46	=46	=46	=46	=46	=46	=46	=46	=46	=46	=46	=46
4E-\	.	4ee-\	4ee-\	.	.	4B-\	Do-	4g\	Do-	.	.	.	.
16r	.	4r	4r	.	.	8B-\	-mi-	8f\	-mi-	.	.	.	.
16BB-/LL	.	.	.	.	.	.	.	.	.	.	.	.	.
16C/	.	.	.	.	.	8B-\	-ne	8f\	-ne	.	.	.	.
16D/JJ	.	.	.	.	.	.	.	.	.	.	.	.	.
4E-\	.	4g/	4b-/	.	.	8G/	De-	8e-\	De-	.	.	.	.
.	.	.	.	.	.	8G/	-us	8e-\	-us	.	.	.	.
16r	.	4f/	8b-/L	.	.	4r	.	4r	.	.	.	.	.
16BB-/LL	.	.	.	.	.	.	.	.	.	.	.	.	.
16C/	.	.	8b-/J	.	.	.	.	.	.	.	.	.	.
16D/JJ	.	.	.	.	.	.	.	.	.	.	.	.	.
=47	=47	=47	=47	=47	=47	=47	=47	=47	=47	=47	=47	=47	=47
4E-\	.	4e-/	8g/L	00r	.	4B-\	Do-	4g\	Do-	00r	.	00r	00r
.	.	.	8e-/J	.	.	.	.	.	.	.	.	.	.
16r	.	4r	4r	.	.	8B-\	-mi-	8f\	-mi-	.	.	.	.
16BB-/LL	.	.	.	.	.	.	.	.	.	.	.	.	.
16C/	.	.	.	.	.	8B-\	-ne	8f\	-ne	.	.	.	.
16D/JJ	.	.	.	.	.	.	.	.	.	.	.	.	.
4E-\	.	2r	2r	.	.	8G/	De-	8e-\	De-	.	.	.	.
.	.	.	.	.	.	8G/	-us	8e-\	-us	.	.	.	.
!	!	!	!	!	!	!LO:LB:g=original	!	!	!	!	!	!	!
16r	.	.	.	.	.	8B-\	A-	8f\	A-	.	.	.	.
16BB-/LL	.	.	.	.	.	.	.	.	.	.	.	.	.
16C/	.	.	.	.	.	8B-\	-gnus	8f\	-gnus	.	.	.	.
16D/JJ	.	.	.	.	.	.	.	.	.	.	.	.	.
=48	=48	=48	=48	=48	=48	=48	=48	=48	=48	=48	=48	=48	=48
!	!	!	!	!	!	!	!	!LO:LB:g=original	!	!	!	!	!
16E-\LL	.	0r	0r	.	.	4e-\	De-	4g\	De-	.	.	.	.
16F\	.	.	.	.	.	.	.	.	.	.	.	.	.
16G\	.	.	.	.	.	.	.	.	.	.	.	.	.
16A-\JJ	.	.	.	.	.	.	.	.	.	.	.	.	.
16B-\LL	.	.	.	.	.	4d\	-i	4f\	-i	.	.	.	.
16c\	.	.	.	.	.	.	.	.	.	.	.	.	.
16B-\	.	.	.	.	.	.	.	.	.	.	.	.	.
16A-\JJ	.	.	.	.	.	.	.	.	.	.	.	.	.
!LO:TX:t=P:problem=mixed beam	!	!	!	!	!	!	!	!	!	!	!	!	!
8G\L	x 6	.	.	.	.	8e-\	Fi-	8g\	Fi-	.	.	.	.
8A-\	6 5	.	.	.	.	16f\	-li-	16f\	-li-	.	.	.	.
.	.	.	.	.	.	16e-\	-us	16f\	-us	.	.	.	.
8B-\	.	.	.	.	.	4d\	Pa-	4f\	Pa-	.	.	.	.
8BB-/J	.	.	.	.	.	.	.	.	.	.	.	.	.
=49	=49	=49	=49	=49	=49	=49	=49	=49	=49	=49	=49	=49	=49
4E-\	.	.	.	.	.	8e-\	-tris	4g\	-tris	.	.	.	.
.	.	.	.	.	.	16B-\LL	Fi-	.	.	.	.	.	.
.	.	.	.	.	.	16An\JJ	.	.	.	.	.	.	.
16r	.	.	.	.	.	8B-\	.	16r	.	.	.	.	.
16E-\LL	.	.	.	.	.	.	.	16g\LL	Fi-	.	.	.	.
16D\	.	.	.	.	.	16B-\	-li-	16f\	.	.	.	.	.
16C\JJ	.	.	.	.	.	16B-\	-us	16e-\JJ	.	.	.	.	.
4D/	x 6_	.	.	.	.	4B-\	Pa-	8f\	.	.	.	.	.
.	.	.	.	.	.	.	.	16f\	-li-	.	.	.	.
.	.	.	.	.	.	.	.	16f\	-us	.	.	.	.
16r	.	.	.	.	.	4B-\	-tris	16r	.	.	.	.	.
16D/LL	.	.	.	.	.	.	.	16f\LL	Fi-	.	.	.	.
16C/	x x	.	.	.	.	.	.	16e-\	.	.	.	.	.
16BB-/JJ	.	.	.	.	.	.	.	16d\JJ	.	.	.	.	.
=50	=50	=50	=50	=50	=50	=50	=50	=50	=50	=50	=50	=50	=50
4C/	x 7	1r	1r	.	.	16r	.	8e-\	.	.	.	.	.
.	.	.	.	.	.	16B-\LL	Fi-	.	.	.	.	.	.
.	.	.	.	.	.	16A-\	.	16e-\	-li-	.	.	.	.
.	.	.	.	.	.	16G\JJ	.	16e-\	-us	.	.	.	.
16r	.	.	.	.	.	8A-/	.	16r	.	.	.	.	.
16C/LL	x 6	.	.	.	.	.	.	16e-\LL	Fi-	.	.	.	.
16BB-/	.	.	.	.	.	16A-/	-li-	16d\	.	.	.	.	.
16AA-/JJ	x 7	.	.	.	.	16A-/	-us	16c\JJ	.	.	.	.	.
!LO:TX:t=P:problem=mixed beam	!	!	!	!	!	!	!	!	!	!	!	!	!
8BB-/L	.	.	.	.	.	8A-/	Fi-	8d\	.	.	.	.	.
8E-\J	.	.	.	.	.	16G/	-li-	16e-\	-li-	.	.	.	.
.	.	.	.	.	.	16F/	-us	16f\	-us	.	.	.	.
!LO:TX:t=P:problem=mixed beam	!	!	!	!	!	!	!	!	!	!	!	!	!
8B-\L	.	.	.	.	.	4F/	Pa-	4d\	Pa-	.	.	.	.
8BB-/J	.	.	.	.	.	.	.	.	.	.	.	.	.
=51	=51	=51	=51	=51	=51	=51	=51	=51	=51	=51	=51	=51	=51
!	!	!	!	!	!	!LO:SIC:v:s=4E-/	!	!	!	!	!	!	!
!LO:LB:g=original	!	!	!	!	!	!LO:LB:g=original	!	!	!	!	!	!	!
4E-\	.	4e-/	4e-/	0r	.	4F/	-tris	4e-\	-tris	0r	.	0r	0r
16r	.	16r	16r	.	.	4r	.	4r	.	.	.	.	.
16BB-\LL	.	16B-/LL	16B-/LL	.	.	.	.	.	.	.	.	.	.
16C\	.	16c/	16c/	.	.	.	.	.	.	.	.	.	.
16D\JJ	.	16d/JJ	16d/JJ	.	.	.	.	.	.	.	.	.	.
4E-\	.	4e-/	4e-/	.	.	2r	.	2r	.	.	.	.	.
16r	.	16r	16r	.	.	.	.	.	.	.	.	.	.
16BB-\LL	.	16B-/LL	16B-/LL	.	.	.	.	.	.	.	.	.	.
16C\	.	16c/	16c/	.	.	.	.	.	.	.	.	.	.
16D\JJ	.	16d/JJ	16d/JJ	.	.	.	.	.	.	.	.	.	.
=52	=52	=52	=52	=52	=52	=52	=52	=52	=52	=52	=52	=52	=52
16E-\LL	.	16e-/LL	16e-/LL	.	.	0r	.	0r	.	.	.	.	.
16D\	.	16d/	16d/	.	.	.	.	.	.	.	.	.	.
16E-\	.	16e-/	16e-/	.	.	.	.	.	.	.	.	.	.
16F\JJ	.	16f/JJ	16f/JJ	.	.	.	.	.	.	.	.	.	.
16G\LL	.	16g/LL	16g/LL	.	.	.	.	.	.	.	.	.	.
16F\	.	16f/	16f/	.	.	.	.	.	.	.	.	.	.
16G\	.	16g/	16g/	.	.	.	.	.	.	.	.	.	.
16A-\JJ	.	16a-/JJ	16a-/JJ	.	.	.	.	.	.	.	.	.	.
16B-\LL	.	16b-\LL	16b-\LL	.	.	.	.	.	.	.	.	.	.
16A-\	.	16a-\	16a-\	.	.	.	.	.	.	.	.	.	.
16B-\	.	16b-\	16b-\	.	.	.	.	.	.	.	.	.	.
16c\JJ	.	16cc\JJ	16cc\JJ	.	.	.	.	.	.	.	.	.	.
16B-\LL	.	16b-\LL	16b-\LL	.	.	.	.	.	.	.	.	.	.
16c\	.	16cc\	16cc\	.	.	.	.	.	.	.	.	.	.
16B-\	.	16b-\	16b-\	.	.	.	.	.	.	.	.	.	.
16A-\JJ	.	16a-\JJ	16a-\JJ	.	.	.	.	.	.	.	.	.	.
=53	=53	=53	=53	=53	=53	=53	=53	=53	=53	=53	=53	=53	=53
!LO:TX:t=P:problem=mixed beam	!	!	!	!	!	!	!	!	!	!	!	!	!
8G\L	.	8g/L	8g/L	1r	.	.	.	.	.	1r	.	1r	1r
8A-\	.	8a-/	8a-/	.	.	.	.	.	.	.	.	.	.
8B-\	.	8b-/	8b-/	.	.	.	.	.	.	.	.	.	.
8BB-/J	.	8B-/J	8B-/J	.	.	.	.	.	.	.	.	.	.
4E-\	.	4e-/	4e-/	.	.	.	.	.	.	.	.	.	.
4r	.	4r	4r	.	.	.	.	.	.	.	.	.	.
=54||	=54||	=54||	=54||	=54||	=54||	=54||	=54||	=54||	=54||	=54||	=54||	=54||	=54||
*M2/4	*	*M2/4	*M2/4	*M2/4	*	*M2/4	*	*M2/4	*	*M2/4	*	*M2/4	*M2/4
!LO:TX:b:t=Qui tollis	!	!LO:TX:b:t=Qvi Sedes.	!LO:TX:b:t=Qvi tollis	!	!	!	!	!LO:LB:g=original	!	!	!	!LO:TX:b:t=Qvi tollis	!LO:TX:b:t=Qvi tollis
!	!	!LO:PB:g=original	!LO:LB:g=original	!	!	!	!	!	!	!	!	!	!
8C\L	.	4.cc\	8ee-\L	(8C\L	Qvi	4G/	Qvi	4e-\	Qvi	4cc\	Qvi	4G/	4G/
8D\	.	.	8ff\	8D\J)	.	.	.	.	.	.	.	.	.
8E-\	.	.	8gg\	(8E-\L	tol-	4G/	tol-	4e-\	tol-	4cc\	tol-	4G/	4G/
8F\J	.	8cc\	8aa-\J	8F\J)	.	.	.	.	.	.	.	.	.
=55	=55	=55	=55	=55	=55	=55	=55	=55	=55	=55	=55	=55	=55
8G\L	x n	8bn/L	8dd\L	8G\	-lis	8G/	-lis	8d\	-lis	8bn\	-lis	8G/	8G/
8c\J	.	8g/	8ee-\J	8c\	pec-	8G/	qvi	8e-\	qvi	8ee-\	qvi	8r	8r
!	!	!	!	!LO:LB:g=original	!	!	!	!	!	!	!	!	!
8Bn\L	x 6_	8g/	8dd\L	8Bn\	-ca-	8G/	tol-	8g\	tol-	8dd\	tol-	4r	4r
16An\L	.	8g/J	16cc\L	16A-\	-ta	16G/	-lis	16g\	-lis	16cc\	-lis	.	.
16B\JJ	x x	.	16dd\JJ	16Bn\	qvi	16G/	pec-	16g\	pec-	16dd\	pec-	.	.
=56	=56	=56	=56	=56	=56	=56	=56	=56	=56	=56	=56	=56	=56
!LO:TX:t=P:problem=mixed beam	!	!LO:TX:t=P:problem=mixed beam	!	!	!	!	!	!	!	!	!	!	!
8c\L	.	8g/L	8ee-\L	8c\	tol-	8c\	-ca-	8g\	-ca-	8ee-\	-ca-	8r	8r
8C/J	.	8cc\J	8ee-\J	8C/	-lis	8c\	-ta	8g\	-ta	8ee-\	-ta	8G/L	8G/L
4r	.	8bn\L	8dd\L	4r	.	4r	.	4r	.	4r	.	8G/	8G/
.	.	16a-\L	16cc\L	.	.	.	.	.	.	.	.	8G/J	8G/J
.	.	16bn\JJ	16dd\JJ	.	.	.	.	.	.	.	.	.	.
=57	=57	=57	=57	=57	=57	=57	=57	=57	=57	=57	=57	=57	=57
!	!	!	!	!	!	!	!	!	!	!	!	!	!LO:TX:t=P:problem=mixed beam
8r	.	8cc\L	8ee-\L	8r	.	8r	.	8r	.	8r	.	8G/L	8G/L
8c\	.	8ee-\J	8gg\J	8c\	pec-	8c\	pec-	8g\	pec-	8ee-\	pec-	8G/	8g\
8Bn\L	x 6_	8dd\L	8gg\L	8Bn\	-ca-	8d\	-ca-	8g\	-ca-	8dd\	-ca-	8G/	8g\
16An\L	.	16cc\L	8gg\J	16An\LL	-ta	8G/	-ta	8g\	-ta	16cc\LL	-ta	8G/J	8g\J
16B\JJ	x x	16dd\JJ	.	16Bn\JJ	.	.	.	.	.	16dd\JJ	.	.	.
=58	=58	=58	=58	=58	=58	=58	=58	=58	=58	=58	=58	=58	=58
!LO:TX:t=P:problem=mixed beam	!	!	!	!	!	!	!	!	!	!	!	!	!
8c\L	.	4.ee-\	8gg\L	8c\	mun-	8c\	mun-	8g\	mun-	8ee-\	mun-	4G/	4g\
8C/	.	.	8gg\	8C/	-di	8c\	-di	8g\	-di	8ee-\	-di	.	.
8c\	.	.	8gg\	8c\	Mi-	8c\	Mi-	8g\	mi-	8ee-\	mi-	4r	4r
8B-X\J	.	8dd\	8gg\J	8B-X\	-ſe-	8G/	-ſe-	8g\	-ſe-	8dd\	-ſe-	.	.
=59	=59	=59	=59	=59	=59	=59	=59	=59	=59	=59	=59	=59	=59
!	!	!	!	!	!	!LO:LB:g=original	!	!	!	!	!	!	!
8A-X\L	.	8cc\L	8ee-\L	8A-\	-re-	8c\	-re-	8e-\	-re-	8cc\	-re-	2r	2r
8G\	6 4	8cc\	8ee-\	8G\	-re	8c\	-re	8e-\	-re	8cc\	-re	.	.
8F\	.	8cc\	8aa-\	8F\	Mi-	8c\	Mi-	8a-X\	mi-	8cc\	mi-	.	.
8E-\J	.	8cc\J	8gg\J	8E-\	-ſe-	8c\	-ſe-	8a-\	-ſe-	8cc\	-ſe-	.	.
=60	=60	=60	=60	=60	=60	=60	=60	=60	=60	=60	=60	=60	=60
!LO:TX:t=P:problem=mixed beam	!	!	!	!	!	!	!	!	!	!LO:LB:g=original	!	!	!
!LO:LB:g=original	!	!	!	!	!	!	!	!	!	!	!	!	!
8D\L	x 6	8bn\L	8ff\L	8D/	-re-	8Bn\	-re-	8d\	-re-	8ff\	-re-	8r	8r
8C\	.	16cc\L	16ee-\L	8C/	-re	(16c\LL	-re	8g\	-re	16ee-\LL	-re	8G/L	8G/L
.	.	16dd\JJ	16dd\JJ	.	.	16d\JJ)	.	.	.	16dd\JJ	.	.	.
!	!	!	!	!LO:TX:t=P:problem=mixed beam	!	!	!	!	!	!	!	!	!
8G\	x n	8g\L	4ddt\	8G\L	no-	4Bn\	no-	4g\	no-	4dd\	no-	8G/	8G/
8GG/J	.	8bn\J	.	8GG/J	.	.	.	.	.	.	.	8G/J	8G/J
=61	=61	=61	=61	=61	=61	=61	=61	=61	=61	=61	=61	=61	=61
!	!	!	!	!	!	!	!	!	!	!	!	!LO:LB:g=original	!
8C/	.	8cc\L	8cc\L	8C/	-bis	8c\	-bis	8g\	-bis	8cc\	-bis	8G/	4G/
8r	.	8cc\J	8ee-\J	8r	.	8r	.	8r	.	8r	.	8r	.
8G\	x n	8bn\L	8dd\L	4r	.	4r	.	4r	.	4r	.	4r	4r
8r	.	16a-\L	16cc\L	.	.	.	.	.	.	.	.	.	.
.	.	16bn\JJ	16dd\JJ	.	.	.	.	.	.	.	.	.	.
=62	=62	=62	=62	=62	=62	=62	=62	=62	=62	=62	=62	=62	=62
!LO:TX:t=P:problem=mixed beam	!	!LO:LB:g=original	!	!LO:LB:g=original	!	!	!	!	!	!	!	!	!
8c\L	.	8cc\L	8ee-\L	0r	.	2r	.	2r	.	2r	.	8r	8r
8G\	x 6	8ee-\J	8gg\J	.	.	.	.	.	.	.	.	8B-/L	8g\
8B-\	.	8dd\L	8ff\L	.	.	.	.	.	.	.	.	8B-/	8f\L
8BB-/J	.	16cc\L	16ee-\L	.	.	.	.	.	.	.	.	8B-/J	16e-\L
.	.	16dd\JJ	16ff\JJ	.	.	.	.	.	.	.	.	.	16f\JJ
=63	=63	=63	=63	=63	=63	=63	=63	=63	=63	=63	=63	=63	=63
*clefC4	*	*	*	*	*	*	*	*	*	*	*	*	*
=-	=-	=-	=-	=-	=-	=-	=-	=-	=-	=-	=-	=-	=-
*k[a-b-e-]	*	*	*	*	*	*	*	*	*	*	*	*	*
!	!	!	!LO:LB:g=original	!	!	!	!	!LO:LB:g=original	!	!	!	!	!LO:LB:g=original
8E-/L	.	4ee-\	4gg\	.	.	8E-/L	Qvi	4g\	Qvi	4ee-\	Qvi	4B-/	4g\
8F/	.	.	.	.	.	8F/J	.	.	.	.	.	.	.
8G/	x 6	4r	4r	.	.	8G/L	tol-	4g\	tol-	4ee-\	tol-	4r	4r
8A-/J	.	.	.	.	.	8A-/J	.	.	.	.	.	.	.
=64	=64	=64	=64	=64	=64	=64	=64	=64	=64	=64	=64	=64	=64
8B-\L	.	2r	2r	.	.	8B-\	-lis	8f\	-lis	8dd\	-lis	2r	2r
8e-\J	.	.	.	.	.	8e-\	Qvi	8g\	Qvi	8b-\	qvi	.	.
8d\L	x 6	.	.	.	.	8d\	tol-	8f\	tol-	8b-\	tol-	.	.
16c\L	x _	.	.	.	.	16c\	-lis	16e-\	-lis	16b-\	-lis	.	.
16d\JJ	.	.	.	.	.	16d\	pec-	16f\	pec-	16b-\	pec-	.	.
.	x x	.	.	.	.	.	.	.	.	.	.	.	.
=65	=65	=65	=65	=65	=65	=65	=65	=65	=65	=65	=65	=65	=65
!LO:TX:t=P:problem=mixed beam	!	!	!	!	!	!	!	!	!	!	!	!	!
8e-\L	.	8r	8r	.	.	8e-\	-ca-	8g\	-ca-	8b-\	-ca-	8r	8r
8E-/J	.	8ee-\	8gg\	.	.	8E-/	-ta	8g\	-ta	8b-\	-ta	8B-/L	8B-/L
4r	.	8dd\L	8ff\L	.	.	4r	.	4r	.	4r	.	8B-/	8B-/
.	.	16cc\L	16ee-\L	.	.	.	.	.	.	.	.	8B-/J	8B-/J
.	.	16dd\JJ	16ff\JJ	.	.	.	.	.	.	.	.	.	.
=66	=66	=66	=66	=66	=66	=66	=66	=66	=66	=66	=66	=66	=66
8r	.	8ee-\L	8gg\L	0r	.	8r	.	8r	.	8r	.	8B-/	8B-/
8e-\	.	8gg\J	8bb-\	.	.	8e-\	pec-	8g\	pec-	8b-\	pec-	8r	8r
8d\L	x 6	8ff\L	8bb-\	.	.	8d\	-ca-	8f\	-ca-	8b-\	-ca-	4r	4r
16c\L	.	16ee-\L	8bb-\J	.	.	16c\LL	-ta	(16e-\LL	-ta	8b-\	-ta	.	.
16d\JJ	.	16ff\JJ	.	.	.	16d\JJ	.	16f\JJ)	.	.	.	.	.
=67	=67	=67	=67	=67	=67	=67	=67	=67	=67	=67	=67	=67	=67
!LO:TX:t=P:problem=mixed beam	!	!	!	!	!	!LO:PB:g=original	!	!	!	!	!	!	!
8e-\L	.	4gg\	4bb-\	.	.	8e-\	mun-	8g\	mun-	8b-\	mun-	0r	0r
8E-/	.	.	.	.	.	8E-/	-di	8g\	-di	8b-\	-di	.	.
8e-\	.	4r	4r	.	.	8e-\	Sus-	8g\	Sus-	8b-\	Sus-	.	.
8d\J	.	.	.	.	.	16d\	-ci-	16f\	-ci-	16b-\	-ci-	.	.
.	.	.	.	.	.	16d\	-pe	16f\	-pe	16b-\	-pe	.	.
=68	=68	=68	=68	=68	=68	=68	=68	=68	=68	=68	=68	=68	=68
8c\L	.	1r	1r	.	.	8c\	de-	8e-\	de-	8ee-\	de-	.	.
8B-\	.	.	.	.	.	8B-\	-pre-	8e-\	-pre-	8dd\	-pre-	.	.
8A-\	.	.	.	.	.	8A-/	-ca-	8e-\	-ca-	8cc\	-ca-	.	.
8G\J	.	.	.	.	.	8G/	-ti-	8e-\	-ti-	8b-\	-ti-	.	.
=69	=69	=69	=69	=69	=69	=69	=69	=69	=69	=69	=69	=69	=69
!	!	!	!	!	!	!	!	!	!	!LO:PB:g=original	!	!	!
8F/L	.	.	.	.	.	8F/	-o-	8d\	-o-	8a-\	-o-	.	.
8E-/J	.	.	.	.	.	8E-/	-nem	(16e-\LL	-nem	16g/LL	-nem	.	.
.	.	.	.	.	.	.	.	16f\JJ)	.	16f/JJ	.	.	.
!LO:TX:t=P:problem=mixed beam	!	!	!	!	!	!	!	!	!	!	!	!	!
8B-\L	.	.	.	.	.	4B-\	no-	4d\	no-	4f/	No-	.	.
8BB-/J	.	.	.	.	.	.	.	.	.	.	.	.	.
=70	=70	=70	=70	=70	=70	=70	=70	=70	=70	=70	=70	=70	=70
4E-/	.	8r	8r	1r	.	4E-/	-stram	4e-\	-stram	4g/	-stram	.	.
.	.	8ee-\	8gg\	.	.	.	.	.	.	.	.	.	.
*clefF4	*	*	*	*	*	*	*	*	*	*	*	*	*
=-	=-	=-	=-	=-	=-	=-	=-	=-	=-	=-	=-	=-	=-
*k[a-b-e-a-3]	*	*	*	*	*	*	*	*	*	*	*	*	*
8r	.	8dd\L	8ff\L	.	.	4r	.	4r	.	4r	.	.	.
8B-\	.	16cc\L	16ee-\L	.	.	.	.	.	.	.	.	.	.
.	.	16dd\JJ	16ff\JJ	.	.	.	.	.	.	.	.	.	.
=71	=71	=71	=71	=71	=71	=71	=71	=71	=71	=71	=71	=71	=71
!LO:LB:g=original	!	!	!	!	!	!	!	!	!	!	!	!	!
8E-\	.	8ee-\L	8gg\L	.	.	2r	.	2r	.	2r	.	2r	2r
8r	.	8cc\J	8ee-\J	.	.	.	.	.	.	.	.	.	.
8r	.	8bn\L	8dd\L	.	.	.	.	.	.	.	.	.	.
8G\	x n	16an\L	16cc\L	.	.	.	.	.	.	.	.	.	.
.	.	16b\JJ	16dd\JJ	.	.	.	.	.	.	.	.	.	.
=72	=72	=72	=72	=72	=72	=72	=72	=72	=72	=72	=72	=72	=72
!	!	!	!	!	!	!	!	!LO:LB:g=original	!	!	!	!	!
8C\L	.	4.cc\	8ee-\L	(8C\L	Qvi	4G/	Qvi	4e-\	Qvi	4cc\	Qvi	4G/	4G/
8D\	.	.	8ff\	8D\J)	.	.	.	.	.	.	.	.	.
8E-\	.	.	8gg\	(8E-\L	Se-	4G/	se-	4e-\	se-	4cc\	se-	4G/	4G/
8F\J	.	8cc\	8aa-\J	8F\J)	.	.	.	.	.	.	.	.	.
=73	=73	=73	=73	=73	=73	=73	=73	=73	=73	=73	=73	=73	=73
!	!	!	!	!	!	!	!	!	!	!LO:TX:t=P:problem=n na złej wysokości 	!	!	!
8G\L	.	8bn\L	8dd\L	8G\	-des	8G/	-des	8d\	-des	8bn\	-des	8G/	8G/
8c\J	.	8g\	8ee-\J	8c\	ad	8G/	ad	8e-\	ad	8ee-\	Qvi	8r	8r
8Bn\L	.	8g\	8dd\L	8Bn\	dex-	8G/	dex-	8g\	dex-	8dd\	se-	4r	4r
16An\L	.	8g\J	16cc\L	16An\	-te-	16G/	-te-	16g\	-te-	16cc\	-des	.	.
16B\JJ	.	.	16dd\JJ	16Bn\	-ram	16G/	-ram	16g\	-ram	16dd\	ad	.	.
=74	=74	=74	=74	=74	=74	=74	=74	=74	=74	=74	=74	=74	=74
!LO:TX:t=P:problem=mixed beam	!	!LO:LB:g=original	!	!	!	!LO:LB:g=original	!	!	!	!	!	!	!
8c\L	.	8g\L	8ee-\L	8c\	dex-	8c\	dex-	8g\	dex-	8ee-\	dex-	8r	8r
8C/J	.	8cc\J	8ee-\J	16C/	-te-	16c\	-te-	16g\	-te-	16ee-\	-te-	8G/L	8G/L
.	.	.	.	16C/	-ram	16c\	-ram	16g\	-ram	16ee-\	-ram	.	.
4r	.	8bn\L	8dd\L	4r	.	4r	.	4r	.	4r	.	8G/	8G/
!	!	!LO:SIC:v:s=16an\L	!	!	!	!	!	!	!	!	!	!	!
.	.	16a-\L	16cc\L	.	.	.	.	.	.	.	.	8G/J	8G/J
.	.	16bn\JJ	16dd\JJ	.	.	.	.	.	.	.	.	.	.
=75	=75	=75	=75	=75	=75	=75	=75	=75	=75	=75	=75	=75	=75
!	!	!	!	!	!	!	!	!	!	!	!	!	!LO:TX:t=P:problem=mixed beam
8r	.	8cc\L	8ee-\L	8r	.	8r	.	8r	.	8r	.	8G/L	8G/L
8c\	.	8ee-\J	8gg\	8c\	ad	8c\	ad	8g\	ad	8ee-\	ad	8G/	8g\
8Bn\L	x 6\	8dd\L	8gg\	8Bn\	dex-	8d\	dex-	8g\	dex-	8dd\	dex-	8G/	8g\
16An\L	.	16cc\L	8gg\J	16An\	-te-	16G/	-te-	16g\	-te-	16cc\	-te-	8G/J	8g\J
16B\JJ	.	16dd\JJ	.	16B\	-ram	16G/	-ram	16g\	-ram	16dd\	-ram	.	.
=76	=76	=76	=76	=76	=76	=76	=76	=76	=76	=76	=76	=76	=76
!LO:TX:t=P:problem=mixed beam	!	!	!	!	!	!	!	!	!	!	!	!	!
8c\L	.	4.ee-\	8gg\L	8c\	Pa-	8c\	Pa-	8g\	Pa-	8ee-\	Pa-	4G/	4g\
8C/	.	.	8gg\	8C/	-tris	8c\	-tris	8g\	-tris	8ee-\	-tris	.	.
8c\	.	.	8gg\	8c\	Mi-	8c\	Mi-	8g\	Mi-	8ee-\	mi-	4r	4r
8B-X\J	.	8dd\	8gg\J	8B-X\	-ſe-	8G/	-ſe-	8g\	-ſe-	8dd\	-ſe-	.	.
=77	=77	=77	=77	=77	=77	=77	=77	=77	=77	=77	=77	=77	=77
!	!	!	!LO:LB:g=original	!	!	!	!	!	!	!	!	!	!
8A-X\L	.	8cc\L	8ee-\L	8A-X\	-re-	8c\	-re-	8e-\	-re-	8cc\	-re-	2r	2r
8G\	.	8cc\	8ee-\	8G\	-re	8c\	-re	8e-\	-re	8cc\	-re	.	.
!	!	!	!	!LO:LB:g=original	!	!	!	!	!	!	!	!	!
8F\	.	8cc\	8aa-\	8F\	Mi-	8c\	Mi-	8a-\	Mi-	8cc\	mi-	.	.
8E-\J	.	8cc\J	8gg\J	8E-\	-ſe-	8c\	-ſe-	8g\	-ſe-	8cc\	-ſe-	.	.
=78	=78	=78	=78	=78	=78	=78	=78	=78	=78	=78	=78	=78	=78
!LO:TX:t=P:problem=mixed beam	!	!	!	!	!	!	!	!	!	!LO:LB:g=original	!	!	!
8D\L	x 6\	8bn\L	8ff\L	8D/	-re-	8Bn\	-re-	8d\	-re-	8ff\	-re-	8r	8r
8C\	.	16cc\L	16ee-\L	8C/	-re	16c\LL	-re	8g\	-re	(16ee-\LL	-re	8G/L	8G/L
.	.	16dd\JJ	16dd\JJ	.	.	16d\JJ	.	.	.	16dd\JJ)	.	.	.
!	!	!	!	!LO:TX:t=P:problem=mixed beam	!	!	!	!	!	!	!	!	!
8G\	x n	8g/L	4ddt\	8G\L	no-	4Bn\	no-	4g\	no-	4dd\	no-	8G/	8G/
8GG/J	.	8bn/J	.	8GG/J	.	.	.	.	.	.	.	8G/J	8G/J
=79	=79	=79	=79	=79	=79	=79	=79	=79	=79	=79	=79	=79	=79
!	!	!	!	!	!	!	!	!	!	!	!	!LO:LB:g=original	!
8C/	.	8cc\L	8cc\L	8C/	-bis	8c\	-bis	8g\	-bis	8cc\	-bis.	8G/	8G/
8r	.	8cc\J	8ee-\J	8r	.	8r	.	8r	.	8r	.	8r	8r
8G\	.	8bn\L	8dd\L	4r	.	4r	.	4r	.	4r	.	4r	4r
!	!	!LO:SIC:v:s=16an\L	!	!	!	!	!	!	!	!	!	!	!
8r	.	16a-\L	16cc\L	.	.	.	.	.	.	.	.	.	.
.	.	16bn\JJ	16dd\JJ	.	.	.	.	.	.	.	.	.	.
=80	=80	=80	=80	=80	=80	=80	=80	=80	=80	=80	=80	=80	=80
!LO:TX:t=P:problem=mixed beam	!	!	!	!	!	!	!	!	!	!	!	!	!
8c\L	.	8cc\L	8ee-\L	2r	.	2r	.	2r	.	2r	.	8r	8r
8G\	x 6	8ee-\J	8gg\J	.	.	.	.	.	.	.	.	8B-/L	8g\
!	!	!	!	!	!	!	!	!	!	!	!	!	!LO:LB:g=original
8A-\	.	8dd\L	8ff\L	.	.	.	.	.	.	.	.	8B-/	8f\L
8AA-/J	.	16cc\L	16ee-\L	.	.	.	.	.	.	.	.	8B-/J	16e-\L
.	.	16dd\JJ	16ff\JJ	.	.	.	.	.	.	.	.	.	16f\JJ
=81	=81	=81	=81	=81	=81	=81	=81	=81	=81	=81	=81	=81	=81
!	!	!	!	!	!	!LO:LB:g=original	!	!LO:PB:g=original	!	!	!	!	!
2E-\	.	4ee-\	4gg\	4.E-\	Qvo-	4.e-\	Qvo-	4.g\	Qvo-	4.b-\	Qvo-	8B-/L	8g\L
.	.	.	.	.	.	.	.	.	.	.	.	8B-/J	16e-\L
.	.	.	.	.	.	.	.	.	.	.	.	.	16f\JJ
.	.	4r	4r	.	.	.	.	.	.	.	.	16e-\LL	16g\LL
.	.	.	.	.	.	.	.	.	.	.	.	16f\	16a-\
.	.	.	.	8E-\	-ni-	8B-\	-ni-	8g\	-ni-	8b-\	-ni-	16g\	16b-\
.	.	.	.	.	.	.	.	.	.	.	.	16f\JJ	16a-\JJ
=82	=82	=82	=82	=82	=82	=82	=82	=82	=82	=82	=82	=82	=82
2E-\	.	2r	2r	2E-\	-am	2G/	-am	2g\	-am	2b-\	-am	2e-\	2g\
=83	=83	=83	=83	=83	=83	=83	=83	=83	=83	=83	=83	=83	=83
1r	.	8r	8r	8r	.	8r	.	1r	.	1r	.	1r	1r
.	.	8e-/	8g/	8B-\	Tu	8B-\	Tu	.	.	.	.	.	.
.	.	8d/L	8f/L	8B-\	So-	8B-\	so-	.	.	.	.	.	.
.	.	16c/L	16e-/L	8B-\	-lus	8B-\	-lus	.	.	.	.	.	.
.	.	16d/JJ	16f/JJ	.	.	.	.	.	.	.	.	.	.
=84	=84	=84	=84	=84	=84	=84	=84	=84	=84	=84	=84	=84	=84
!LO:TX:b:t=31	!	!LO:LB:g=original	!	!	!	!	!	!	!	!	!	!	!
.	.	8e-/L	8g/L	2B-\	San-	2B-\	San-	.	.	.	.	.	.
.	.	8e-/J	8g/J	.	.	.	.	.	.	.	.	.	.
.	.	8d/L	8f/L	.	.	.	.	.	.	.	.	.	.
.	.	16c/L	16e-/L	.	.	.	.	.	.	.	.	.	.
.	.	16d/JJ	16f/JJ	.	.	.	.	.	.	.	.	.	.
=85	=85	=85	=85	=85	=85	=85	=85	=85	=85	=85	=85	=85	=85
!LO:PB:g=original	!	!	!	!	!	!	!	!	!	!	!	!	!
8r	.	8e-/	8g/	8B-\	-ctus	8B-\	-ctus	8r	.	8r	.	8r	8r
8E-\	.	8r	8r	8E-\	tu	8G\	tu	8g\	Tu	8b-\	Tu	8B-/L	8g\
8D\L	.	4r	4r	8D\L	So-	4B-\	So-	8f\L	So-	4b-\	So-	8B-/	8f\L
16C\L	.	.	.	16C\L	.	.	.	16e-\L	.	.	.	8B-/J	16e-\L
16D\JJ	.	.	.	16D\JJ	.	.	.	16f\JJ	.	.	.	.	16f\JJ
=86	=86	=86	=86	=86	=86	=86	=86	=86	=86	=86	=86	=86	=86
!	!	!	!	!	!	!	!	!	!	!	!	!LO:TX:t=P:problem=mixed beam	!
8E-\L	.	1r	1r	8E-\	-lus	8G\	-lus	8g\	-lus	8b-\	-lus	8B-/L	8g\L
8E-\J	.	.	.	8E-\	tu	8G\	tu	8g\	tu	8b-\	tu	8g\J	8b-\
8D\L	x 6	.	.	8D\L	So-	8B-\	So-	8f\	So-	8b-\	So-	8f\L	8b-\
16C\L	.	.	.	16C\L	.	8B-\	-lus	16e-\LL	-lus	8b-\	-lus	16e-\L	8b-\J
16D\JJ	.	.	.	16D\JJ	.	.	.	16f\JJ	.	.	.	16f\JJ	.
=87	=87	=87	=87	=87	=87	=87	=87	=87	=87	=87	=87	=87	=87
!	!	!	!	!LO:PB:g=original	!	!	!	!	!	!	!	!	!
8E-\L	x 6	.	.	8E-\	-lus	8G\	So-	8g\	So-	8b-\	San-	8g\L	8b-\L
8D\	.	.	.	8D\	tu	8B-\	-lus	8f\	-lus	8b-\	-ctus	8g\	8b-\
8E-\	x 6\	.	.	(8E-\L	So-	8G/L	Do-	(8g\L	San-	8b-\L	Sac-	8g\	8b-\
8C\J	.	.	.	8C\J)	.	8An/J	-mi-	8e-\J)	.	8ee-\J	.	8e-\J	8aX\J
=88	=88	=88	=88	=88	=88	=88	=88	=88	=88	=88	=88	=88	=88
8BB-/	.	8r	8r	8BB-/	-lus	8B-\	-nus	8f\	-ctus	8dd\	-ctus	8f\	8b-\
8r	.	8b-\	8dd\	8r	.	8r	.	8f\	Tu	8ff\	Tu	8r	8r
4r	.	8an\L	8cc\L	4r	.	4r	.	8f\	So-	8ff\	So-	4r	4r
.	.	16g\L	16b-\L	.	.	.	.	8f\	-lus	8ff\	-lu[s]	.	.
.	.	16a\JJ	16cc\JJ	.	.	.	.	.	.	.	.	.	.
=89	=89	=89	=89	=89	=89	=89	=89	=89	=89	=89	=89	=89	=89
2r	.	8b-\L	8dd\L	2r	.	2r	.	4.f\	Do-	4.ff\	Do-	0r	0r
.	.	8b-\J	8dd\J	.	.	.	.	.	.	.	.	.	.
.	.	8an\L	8cc\L	.	.	.	.	.	.	.	.	.	.
.	.	16g\L	16b-\L	.	.	.	.	8f\	-mi-	8ff\	-mi-	.	.
!	!	!	!LO:TX:t=P:problem=wykreślone takty	!	!	!	!	!	!	!	!	!	!
.	.	16a\JJ	16cc\JJ	.	.	.	.	.	.	.	.	.	.
=90	=90	=90	=90	=90	=90	=90	=90	=90	=90	=90	=90	=90	=90
!	!	!	!LO:LB:g=original	!	!	!	!	!	!	!	!	!	!
8r	.	8b-\	8dd\	8r	.	8r	.	8f\	-nus	8ff\	-nus	.	.
8B-\	.	8r	8r	8B-\	Tu	8B-\	Tu	8f\	Tu	8dd\	Tu	.	.
!	!	!	!	!	!	!	!	!	!	!LO:LB:g=original	!	!	!
8An\L	x 6	4r	4r	8An\L	So-	4f\	So-	4f\	So-	8cc\L	So-	.	.
16G\L	x _	.	.	16G\L	.	.	.	.	.	(16b-\L	.	.	.
16A\JJ	.	.	.	16A\JJ	.	.	.	.	.	16cc\JJ)	.	.	.
.	x x	.	.	.	.	.	.	.	.	.	.	.	.
=91	=91	=91	=91	=91	=91	=91	=91	=91	=91	=91	=91	=91	=91
!	!	!	!	!	!	!LO:LB:g=original	!	!LO:LB:g=original	!	!	!	!	!
8B-\L	.	1r	1r	8B-\	-lus	8d\	-lus	8f\	-lus	8dd\	-lus	.	.
8B-\J	.	.	.	8B-\	tu	8B-\	tu	8f\	tu	8dd\	tu	.	.
8An\L	x 6	.	.	8An\L	So-	8f\	So-	8f\	So-	8cc\L	So-	.	.
16G\L	x _	.	.	16G\L	.	8f\	-lus	8f\	-lus	16b-\L	-lus	.	.
16A\JJ	.	.	.	16A\JJ	.	.	.	.	.	16cc\JJ	.	.	.
.	x x	.	.	.	.	.	.	.	.	.	.	.	.
=92	=92	=92	=92	=92	=92	=92	=92	=92	=92	=92	=92	=92	=92
8B-\L	.	.	.	8B-\	-lus	8d\	So-	8f\	Do-	8dd\	So-	.	.
8G\	x 5	.	.	8G\	.	8B-\	-lus	8g\	-mi-	8ee-\	-lus	.	.
8A-X\	.	.	.	8A-X\	Do-	8c\	Do-	8e-\	-nus	8ee-\	Do-	.	.
8F\J	x 6	.	.	8F\	-mi-	8f\	-mi-	8a-X\	tu	8dd\	-mi-	.	.
=93	=93	=93	=93	=93	=93	=93	=93	=93	=93	=93	=93	=93	=93
8E-\L	.	8r	8r	8E-\	-nus	8B-\	-nus	8g\	So-	8ee-\	-nus	8r	8r
8E-\J	.	8b-\L	8gg\	8E-\	Tu	8G/	tu	8g\	-lus	8b-\	tu	8B-/L	8g\
8D\L	x 6_	8b-\	8ff\L	8D\L	So-	4B-\	So-	8f\L	So-	4b-\	So-	8B-/	8f\L
16C\L	.	8b-\J	16ee-\L	16C\L	.	.	.	16e-\L	.	.	.	8B-/J	16e-\L
16D\JJ	x x	.	16ff\JJ	16D\JJ	.	.	.	16f\JJ	.	.	.	.	16f\JJ
=94	=94	=94	=94	=94	=94	=94	=94	=94	=94	=94	=94	=94	=94
!	!	!	!	!	!	!	!	!	!	!	!	!LO:TX:t=P:problem=mixed beam	!
8E-\L	.	8b-\L	8gg\L	8E-\	-lus	8B-\	-lus	8g\	-lus	8ee-\	-lus	8B-/L	8g\L
8E-\J	.	8gg\J	8bb-\	8E-\	tu	8B-\	Tu	8g\	tu	8ee-\	Tu	8g\J	8b-\
8D\L	x 6_	8ff\L	8bb-\	8D\L	So-	4B-\	So-	4b-\	So-	8ff\L	So-	8f\L	8b-\
16C\L	.	16ee-\L	8bb-\J	16C\L	.	.	.	.	.	16ee-\L	.	16e-\L	8b-\J
16D\JJ	x x	16ff\JJ	.	16D\JJ	.	.	.	.	.	16ff\JJ	.	16f\JJ	.
=95	=95	=95	=95	=95	=95	=95	=95	=95	=95	=95	=95	=95	=95
!	!	!	!	!LO:LB:g=original	!	!	!	!	!	!	!	!LO:LB:g=original	!LO:LB:g=original
8E-\L	.	8gg\L	8gg\L	8E-\	-lud	8B-\	-lus	8g\	-lus	8gg\	-lus	8g\L	8b-\L
8E-\	.	8ee-\J	8gg\J	8E-\	Tu	8B-\	tu	8g\	tu	8ee-\	tu	8g\J	8b-\
8B-\	.	8dd\L	8ff\L	8B-\	So-	8B-\	So-	8f\	So-	8dd\	So-	8f\L	8b-\
8B-\J	.	16cc\L	16ee-\L	16B-\	-lus	16B-\	-lus	16e-\	-lus	16cc\	-lus	16e-\L	8b-\J
.	.	16dd\JJ	16ff\JJ	16B-\	Al-	16B-\	Al-	16f\	Al-	16dd\	al-	16f\JJ	.
=96	=96	=96	=96	=96	=96	=96	=96	=96	=96	=96	=96	=96	=96
!LO:LB:g=original	!	!	!	!	!	!	!	!	!	!	!	!	!
8e-\L	.	8ee-\L	8gg\L	8e-\	-tiſ-	8B-\	-tiſ-	8g\	-tiſ-	8ee-\	-tiſ-	8g\L	8b-\L
8e-\J	.	8ee-\J	8gg\J	16e-\	-si-	16B-\	-si-	16g\	-si-	16ee-\	-si-	8g\J	8b-\
.	.	.	.	16e-\	-mus	16B-\	-mus	16g\	-mus	16ee-\	-mus	.	.
8B-\L	.	8dd\L	8ff\L	8B-\	Je-	8.B-\	Je-	8f\	Je-	8dd\	Je-	8f\L	8b-\
8B-\J	.	16cc\L	16ee-\L	8B-\	-su	.	.	16e-\LL	-su	(16cc\LL	-su	16e-\L	8b-\J
.	.	16dd\JJ	16ff\JJ	.	.	16B-\	su	16f\JJ	.	16dd\JJ)	.	16f\JJ	.
=97	=97	=97	=97	=97	=97	=97	=97	=97	=97	=97	=97	=97	=97
!	!	!LO:LB:g=original	!	!	!	!	!	!LO:LB:g=original	!	!	!	!LO:TX:t=P:problem=mixed beam	!
8E-\L	.	8ee-\L	8gg\L	8E-\	Chri-	8B-\	Chri-	8g\	Chri-	8ee-\	Chri-	8e-\L	8g\L
8E-\J	.	8ee-\J	8gg\J	8E-\	-ste	8B-\	-ste	8g\	-ste	8ee-\	-ste	16B-/L	8g\J
.	.	.	.	.	.	.	.	.	.	.	.	16B-/JJ	.
8r	.	8dd\L	8ff\L	4r	.	4r	.	4r	.	4r	.	8B-/L	8f\L
8BB-/	.	16cc\L	16ee-\L	.	.	.	.	.	.	.	.	8B-/J	16e-\L
.	.	16dd\JJ	16ff\JJ	.	.	.	.	.	.	.	.	.	16f\JJ
=98	=98	=98	=98	=98	=98	=98	=98	=98	=98	=98	=98	=98	=98
!	!	!	!	!	!	!LO:LB:g=original	!	!	!	!	!	!	!
!	!	!LO:TX:t=P:problem=mixed beam	!	!	!	!LO:TX:a:t=2	!	!	!	!	!	!	!
8E-\L	.	8ee-\L	8gg\	0r	.	1r	.	8r	.	0r	.	8G/	8e-\
*clefC3	*	*	*	*	*	*	*	*	*	*	*	*	*
=-	=-	=-	=-	=-	=-	=-	=-	=-	=-	=-	=-	=-	=-
*k[b-e-a-3]	*	*	*	*	*	*	*	*	*	*	*	*	*
8e-\|	.	8e-/	8r	.	.	.	.	8e-\	Cum	.	.	8r	8r
8e-\|	.	8e-/	4r	.	.	.	.	8e-\	San-	.	.	4r	4r
8e-\J|	.	8e-/J	.	.	.	.	.	8e-\	-cto	.	.	.	.
=99	=99	=99	=99	=99	=99	=99	=99	=99	=99	=99	=99	=99	=99
!	!	!	!	!	!	!	!	!LO:TX:t=P:problem=poprawiony tekst	!	!	!	!	!
8d\L|	.	8d/L	0r	.	.	.	.	8d\	San-	.	.	1r	1r
16c\L|	.	16c/L	.	.	.	.	.	(16c\LL	-cto	.	.	.	.
16d\JJ|	.	16d/JJ	.	.	.	.	.	16d\JJ)	.	.	.	.	.
8B-\L|	.	8B-/L	.	.	.	.	.	8B-/	Spi-	.	.	.	.
16c\L|	.	16c/L	.	.	.	.	.	(16c\LL	-ri-	.	.	.	.
16d\JJ|	.	16d/JJ	.	.	.	.	.	16d\JJ)	.	.	.	.	.
=100	=100	=100	=100	=100	=100	=100	=100	=100	=100	=100	=100	=100	=100
8e-\L	.	8e-/L	.	.	.	8r	.	8e-\	-tu	.	.	.	.
*clefC4	*	*	*	*	*	*	*	*	*	*	*	*	*
=-	=-	=-	=-	=-	=-	=-	=-	=-	=-	=-	=-	=-	=-
*k[a-b-e-]	*	*	*	*	*	*	*	*	*	*	*	*	*
!LO:TX:t=P:problem=błędna wysokość znaków przy kluczu	!	!	!	!	!	!	!	!	!	!	!	!	!
8B-\	.	8d/	.	.	.	8B-\	Cum	8d\	Cum	.	.	.	.
8B-\	.	8d/	.	.	.	8B-\	San-	8d\	San-	.	.	.	.
8B-\J	.	8d/J	.	.	.	8B-\	-cto	8d\	-cto	.	.	.	.
=101	=101	=101	=101	=101	=101	=101	=101	=101	=101	=101	=101	=101	=101
8An\L	x 6	8c/L	.	.	.	8An/	San-	8c/	San-	.	.	2r	2r
16G\L	.	16B-/L	.	.	.	16G/LL	-cto	16B-/LL	-cto	.	.	.	.
16A\JJ	.	16c/JJ	.	.	.	16A/JJ	.	16c/JJ	.	.	.	.	.
8F\L	x n	8An/L	.	.	.	8F/	Spi-	8An/	Spi-	.	.	.	.
16G\L	.	16B-/L	.	.	.	16G/LL	-ri-	16B-/LL	-ri-	.	.	.	.
16An\JJ	.	16c/JJ	.	.	.	16An/JJ	.	16c/JJ	.	.	.	.	.
=102	=102	=102	=102	=102	=102	=102	=102	=102	=102	=102	=102	=102	=102
8B-\L	.	8d/L	.	8r	.	8B-\	-tu	8d\	-tu	1r	.	8r	8r
*clefF4	*	*	*	*	*	*	*	*	*	*	*	*	*
=-	=-	=-	=-	=-	=-	=-	=-	=-	=-	=-	=-	=-	=-
*k[a-b-e-]	*	*	*	*	*	*	*	*	*	*	*	*	*
8E-\	.	8g/	.	8E-\	Cum	8B-\	Cum	8g\	Cum	.	.	8e-\L	8g\L
8E-\	.	8g/	.	8E-\	San-	8B-\	San-	8g\	San-	.	.	8e-\	8g\
8E-\J	.	8g/J	.	8E-\	-cto	8B-\	-cto	8g\	-cto	.	.	8e-\J	8g\J
=103	=103	=103	=103	=103	=103	=103	=103	=103	=103	=103	=103	=103	=103
!	!	!	!	!	!	!	!	!LO:LB:g=original	!	!	!	!	!
8D\L	x 6	8f/L	2r	8D/	San-	8B-\	San-	8f\	San-	.	.	8B-/L	8f\L
16C\L	x _	16e-/L	.	16C/LL	-cto	8B-\	-cto	(16e-\LL	-cto	.	.	8B-/	8f\
16D\JJ	.	16f/JJ	.	16D/JJ	.	.	.	16f\JJ)	.	.	.	.	.
!	!	!	!	!LO:TX:t=P:problem=kreska taktowa poprawiona na 8B-	!	!	!	!	!	!	!	!	!
8BB-\L	.	8d/L	.	8BB-/	Spi-	8B-\	Spi-	8d\	Spi-	.	.	8B-/	8f\
16C\L	x x	16e-/L	.	(16C/LL	-ri-	8B-\	ri-	(16e-\LL	-ri-	.	.	8B-/J	8f\J
16D\JJ	.	16f/JJ	.	16D/JJ)	.	.	.	16f\JJ)	.	.	.	.	.
=104	=104	=104	=104	=104	=104	=104	=104	=104	=104	=104	=104	=104	=104
!LO:LB:g=original	!	!	!LO:LB:g=original	!	!	!	!	!	!	!LO:LB:g=original	!	!	!
8E-\L	.	8g/L	8r	8E-\	-tu	8B-\	-tu	8g\	-tu	8r	.	8e-\L	8g\L
8F\	.	8g/	8ee-\L	8E-\	Cum	8B-\	Cum	8g\	Cum	8ee-\	Cum	8g\	8b-\
8G\	x 6	8g/	8ee-\	8G\	San-	8B-\	San-	8g\	San-	8ee-\	San-	8g\	8b-\
8E-\J	.	8g/J	8ee-\J	8E-\	-cto	8B-\	-cto	8g\	-cto	8ee-\	-cto	8g\J	8b-\J
=105	=105	=105	=105	=105	=105	=105	=105	=105	=105	=105	=105	=105	=105
*	*	*	*	*	*ij	*	*	*	*	*	*	*	*
!	!	!	!	!	!	!	!	!	!	!LO:TX:t=P:problem=poprawiony tekst	!	!	!
8B-\L	.	8f/L	8dd\L	8B-\	San-	8B-\	San-	8f\	San-	8dd\	San-	4.f\	4.b-\
8A-\	.	8f/	16cc\L	8A-\	-cto	8c\	-cto	8f\	-cto	(16cc\LL	-cto	.	.
*	*	*	*	*	*Xij	*	*	*	*	*	*	*	*
.	.	.	16dd\JJ	.	.	.	.	.	.	16dd\JJ)	.	.	.
8G\	x 6	8e-/	8b-\L	8G\	Spi-	8B-\	Spi-	8e-\	Spi-	8b-\	Spi-	.	.
8F\J	.	8f/J	16cc\L	8F\	-ri-	8A-\	-ri-	8f\	-ri-	(16cc\LL	-ri-	8f\	8b-\
.	.	.	16dd\JJ	.	.	.	.	.	.	16dd\JJ)	.	.	.
=106	=106	=106	=106	=106	=106	=106	=106	=106	=106	=106	=106	=106	=106
!	!	!	!	!LO:LB:g=original	!	!LO:LB:g=original	!	!	!	!	!	!	!
8E-\L	.	8g/L	8ee-\L	8E-\	-tu	8G\	-tu	8B-/	-tu	8ee-\	-tu	8g\	8b-\
8A-\	.	8e-/	8cc\	8A-\	Cum	8c\	Cum	8c/	Cum	8cc\	Cum	8r	8r
8A-\	.	8e-/	8cc\	8A-\	San-	8c\	San-	8e-\	San-	8cc\	San-	4r	4r
8A-\J	.	8e-/J	8cc\J	8A-\	-cto	8c\	-cto	8e-\	-cto	8cc\	-cto	.	.
=107	=107	=107	=107	=107	=107	=107	=107	=107	=107	=107	=107	=107	=107
!	!	!LO:LB:g=original	!	!	!	!	!	!	!	!	!	!	!
8G\L	.	8e-/L	8b-\L	8G\	San-	8e-\	San-	8e-\	San-	8b-\	San-	2r	2r
16F\L	.	8e-/	16a-\L	(16F\LL	-cto	8e-\	-cto	8e-\	-cto	(16a-\LL	-cto	.	.
16G\JJ	.	.	16b-\JJ	16G\JJ)	.	.	.	.	.	16b-\JJ)	.	.	.
8E-\L	.	8e-/	8g\L	8E-\	Spi-	8e-\	Spi-	8e-\	Spi-	8g\	Spi-	.	.
16F\L	.	8e-/J	16a-\L	(16F\LL	-ri-	8e-\	-ri-	8e-\	-ri-	(16a-\LL	-ri-	.	.
16G\JJ	.	.	16b-\JJ	16G\JJ)	.	.	.	.	.	16b-\JJ)	.	.	.
=108	=108	=108	=108	=108	=108	=108	=108	=108	=108	=108	=108	=108	=108
!	!	!	!	!	!	!	!	!	!	!	!	!	!LO:LB:g=original
8A-\L	.	8e-/L	8cc\L	8A-\	-tu	8c\	-tu	8e-\	-tu	8cc\	-tu	8r	8r
8G\	x 6	8e-/	16ee-\L	8G\	in	8e-\	in	8e-\	in	8b-\	in	8e-\L	8b-\L
.	.	.	16b-\JJ	.	.	.	.	.	.	.	.	.	.
8A-\	.	8e-/	8cc\L	8A-\	glo-	8c\	glo-	8e-\	glo-	8cc\	glo-	8e-\	8cc\
8F\J	x 6	8a-/J	8dd\J	16G\	-ri-	16f\	-ri-	16a-\	-ri-	16dd\	-ri-	8f\J	8a-\J
.	.	.	.	16F\	-a	16f\	-a	16a-\	-a	16dd\	-a	.	.
=109	=109	=109	=109	=109	=109	=109	=109	=109	=109	=109	=109	=109	=109
!	!	!	!LO:TX:t=P:problem=mixed beam	!	!	!	!	!LO:LB:g=original	!	!	!	!LO:TX:t=P:problem=mixed beam	!LO:TX:t=P:problem=mixed beam
!	!	!	!	!	!	!	!	!	!	!	!	!LO:LB:g=original	!
8E-\L	.	8g/L	8ee-\L	8E-\	De-	8B-\	De-	8g\	De-	8ee-\	De-	8g\L	8b-\L
8E-\J	.	8e-/J	8g/J	8E-\	-i	8B-\	-i	8g\	-i	8ee-\	-i	8B-/	8B-/
4r	.	8d/L	8f/L	4r	.	4r	.	4r	.	4r	.	8B-/	8B-/
.	.	16c/L	16e-/L	.	.	.	.	.	.	.	.	8B-/J	8B-/J
.	.	16d/JJ	16f/JJ	.	.	.	.	.	.	.	.	.	.
=110	=110	=110	=110	=110	=110	=110	=110	=110	=110	=110	=110	=110	=110
!	!	!	!	!	!	!	!	!	!	!	!	!	!LO:TX:t=P:problem=mixed beam
8r	.	8e-/L	8g/L	8r	.	8r	.	8r	.	8r	.	8B-/L	8B-/L
8E-\	.	8g/J	8b-/	8E-\	In	8G/	in	8g\	In	8b-\	in	8B-/	8b-\J
8D\L	x 6	8f/L	8b-/	8D\	Glo-	8B-\	glo-	8f\	Glo-	8b-\	glo-	8B-/	8f\L
16C\L	.	16e-/L	8b-/J	16C\	-ri-	16B-\	-ri-	16e-\	-ri-	16b-\	-ri-	8B-/J	16e-\L
16D\JJ	.	16f/JJ	.	16D\	-a	16B-\	-a	16f\	-a	16b-\	-a	.	16f\JJ
=111	=111	=111	=111	=111	=111	=111	=111	=111	=111	=111	=111	=111	=111
!	!	!LO:TX:t=P:problem=mixed beam	!	!	!	!	!	!	!	!LO:LB:g=original	!	!	!
8E-\L	.	8g/L	8ee-\L	8E-\	De-	8G/	De-	8g\	De-	8b-\	De-	8B-/L	8g\L
8E-\J	.	8ee-\J	8gg\J	8E-\	-i	8G/	-i	8g\	-i	8b-\	-i	8B-/	8b-\
4r	.	8dd\L	8ff\L	4r	.	4r	.	4r	.	4r	.	8B-/	8b-\
.	.	16cc\L	16ee-X\L	.	.	.	.	.	.	.	.	8B-/J	8b-\J
.	.	16dd\JJ	16ff\JJ	.	.	.	.	.	.	.	.	.	.
=112	=112	=112	=112	=112	=112	=112	=112	=112	=112	=112	=112	=112	=112
!	!	!	!	!	!	!	!	!	!	!	!	!LO:TX:t=P:problem=mixed beam	!
8r	.	8ee-\L	8gg\L	8r	.	8r	.	8r	.	8r	.	8B-/L	8b-\L
8E-\	.	8gg\J	8bb-\	8E-\	In	8B-\	In	8g\	In	8ee-\	in	8g\J	8b-\
8D\L	x 6	8ff\L	8bb-\	8D\	Glo-	8B-\	glo-	8b-\	Glo-	8ff\	glo-	8f\L	8b-\
16C\L	.	16ee-\L	8bb-\J	16C\	-ri-	16B-\	-ri-	16b-\	-ri-	16ee-\	-ri-	16e-\L	8b-\J
16D\JJ	.	16ff\JJ	.	16D\	-a	16B-\	-a	16b-\	-a	16ff\	-a	16f\JJ	.
=113	=113	=113	=113	=113	=113	=113	=113	=113	=113	=113	=113	=113	=113
!	!	!	!	!	!	!LO:LB:g=original	!	!	!	!	!	!	!
8E-\L	.	8gg\L	8bb-\L	8E-\	De-	8B-\	De-	8g\	De-	8gg\	De-	8g\L	8b-\L
8E-\	.	8ee-\	8gg\	8E-\	-i	8B-\	-i	8g\	-i	8gg\	-i	8e-\	8g\
!	!	!	!	!LO:LB:g=original	!	!	!	!	!	!	!	!	!
8G\	.	8ee-\	8gg\	8r	.	8r	.	8r	.	8r	.	8e-\	8g\
8E-\J	.	8ee-\J	8gg\J	8E-\	In	8B-\	In	8g\	In	8ee-\	In	8e-\J	8g\J
=114	=114	=114	=114	=114	=114	=114	=114	=114	=114	=114	=114	=114	=114
8B-\L	.	8dd\L	8ff\L	8B-\	Glo-	8B-\	glo-	8f\	Glo-	8dd\	glo-	4B-/	4f\
8A-\	.	16cc\L	16ee-\L	16A-\	-ri-	16B-\	-ri-	16f\	-ri-	16cc\	-ri-	.	.
.	.	16dd\JJ	16ff\JJ	16A-\	-a	16B-\	-a	16f\	-a	16dd\	-a	.	.
8G\	x 6	8b-\L	8gg\L	8G\	De-	8B-\	De-	8e-\	De-	8b-\	De-	8e-\L	8g\L
8F\J	.	16cc\L	8aa-X\J	8F\	-i	8A-X\	-i	8f\	-i	16cc\LL	-i	8g\J	8a-\J
.	.	16dd\JJ	.	.	.	.	.	.	.	16dd\JJ	.	.	.
=115	=115	=115	=115	=115	=115	=115	=115	=115	=115	=115	=115	=115	=115
!LO:TX:t=P:problem=mixed beam	!	!	!LO:LB:g=original	!	!	!	!	!LO:LB:g=original	!	!	!	!	!
8E-\L	.	8ee-\L	8bb-\L	8E-\	Pa-	8B-\	Pa-	8g\	Pa-	8ee-\	Pa-	8g\L	8b-\L
8A-\	x 6	16ff\L	16aa-\L	8A-\	-tris	8c\	-tris	16a-\LL	-tris	16ff\LL	-tris	16f\L	16a-\L
.	.	16ee-\JJ	16gg\JJ	.	.	.	.	16g\JJ	.	16ee-\JJ	.	16e-\JJ	16g\JJ
!	!	!	!	!LO:TX:t=P:problem=mixed beam	!	!	!	!	!	!	!	!	!
8B-\	.	8.dd\L	8.ff\L	8B-\L	A-	4B-\	A-	4f\	A-	4dd\	A-	8B-/L	8.f\L
8BB-/J	.	.	.	8BB-/J	.	.	.	.	.	.	.	8B-/J	.
.	.	16dd\Jk	16ff\Jk	.	.	.	.	.	.	.	.	.	16f\Jk
=116	=116	=116	=116	=116	=116	=116	=116	=116	=116	=116	=116	=116	=116
8E-\	.	8ee-\L	8ee-\L	8E-\	-men	8B-\	-men	8g\	-men	8ee-\	-men	8G/L	8e-\L
8r	.	8ee-\J	8gg\J	8r	.	8r	.	8r	.	8r	.	8B-/	8g\J
4r	.	8dd\L	8ff\L	4r	.	4r	.	4r	.	4r	.	8B-/	8f\L
.	.	16cc\L	16ee-\L	.	.	.	.	.	.	.	.	8B-/J	16e-\L
.	.	16dd\JJ	16ff\JJ	.	.	.	.	.	.	.	.	.	16f\JJ
=117	=117	=117	=117	=117	=117	=117	=117	=117	=117	=117	=117	=117	=117
!	!	!LO:LB:g=original	!	!	!	!	!	!	!	!	!	!LO:TX:t=P:problem=mixed beam	!LO:LB:g=original
8r	.	8ee-\L	8gg\L	8r	.	8r	.	8r	.	8r	.	8B-/L	8g\L
8E-\	.	8gg\J	8bb-\	8E-\	In	8G/	In	8g\	In	8b-\	in	8g\J	8b-\
8D\L	.	8ff\L	8bb-\	8D\	Glo-	8B-\	Glo-	8f\	Glo-	8b-\	Glo-	8f\L	8b-\
16C\L	.	16ee-\L	8bb-\J	16C\	-ri-	16B-\	-ri-	16e-\	-ri-	16b-\	-ri-	16e-\L	8b-\J
16D\JJ	.	16ff\JJ	.	16D\	-a	16B-\	-a	16f\	-a	16b-\	-a	16f\JJ	.
=118	=118	=118	=118	=118	=118	=118	=118	=118	=118	=118	=118	=118	=118
!	!	!	!	!	!	!	!	!	!	!LO:LB:g=original	!	!LO:LB:g=original	!
8E-\L	.	4.gg\	4.bb-\	(8E-\L	De-	4.G/	De-	4.g\	De-	4.b-\	De-	4.g\	4.b-\
8F\	.	.	.	8F\J)	.	.	.	.	.	.	.	.	.
8G\	.	.	.	(8G\L	-i	.	.	.	.	.	.	.	.
8A-\J	.	16ff\LL	16aa-\LL	8A-\J)	.	8c\	-i	16f\LL	-i	8cc\	-i	16f\LL	16a-\LL
.	.	16ee-\JJ	16gg\JJ	.	.	.	.	16e-\JJ	.	.	.	16e-\JJ	16g\JJ
=119	=119	=119	=119	=119	=119	=119	=119	=119	=119	=119	=119	=119	=119
!LO:TX:t=P:problem=mixed beam	!	!	!	!	!	!	!	!	!	!	!	!	!
8B-\L	.	8dd\L	8ff\L	8B-\	Pa-	8B-\	Pa-	8f\	Pa-	8dd\	Pa-	8B-/L	8f\L
8E-\	.	16ee-\L	16gg\L	8E-\	-tris	8B-\	-tris	16g\LL	-tris	16ee-\LL	-tris	16B-/L	16g\L
.	.	16ff\JJ	16aa-\JJ	.	.	.	.	16a-\JJ	.	16ff\JJ	.	16B-/JJ	16f\JJ
8B-\	.	8.dd\L	8.ff\L	4BB-/	A-	4B-\	A-	4f\	A-	4dd\	A-	8B-/L	4f\
8BB-/J	.	.	.	.	.	.	.	.	.	.	.	16B-/L	.
.	.	16dd\Jk	16ff\Jk	.	.	.	.	.	.	.	.	16B-/JJ	.
=120	=120	=120	=120	=120	=120	=120	=120	=120	=120	=120	=120	=120	=120
4E-\	.	8ee-\	8ee-\	4E-\	-men.	8B-\	-men	8g\	-men.	8ee-\	-men.	4G/	4e-\
.	.	8r	8r	.	.	8r	.	8r	.	8r	.	.	.
!LO:TX:a:t=67	!	!	!	!	!	!	!	!	!	!	!	!	!
4r	.	4r	4r	4r	.	4r	.	4r	.	4r	.	4r	4r
==	==	==	==	==	==	==	==	==	==	==	==	==	==
*-	*-	*-	*-	*-	*-	*-	*-	*-	*-	*-	*-	*-	*-
!!!system-decoration: [(g1)][(g2)][(g3)]s9
!!!RDF**kern: | = vertical stroke
!!!RDF**kern: > = above
!!!RDF**kern: < = below
!!!ENC: Katarzyna Serwa
!!!END: 2020-12-14
!!!ENC: Krzysztof Stępień
!!!END: 2022-03-24
